!!!!SEGMENT: pl-wumfc--n53446--001-001_moniuszko-stanislaw--hrabina-uwertura.krn
!!!cenid: 18xx:4088
!!!COM: Moniuszko, Stanisław
!!!COM-rismID: pe30008351
!!!CDT: 1819/05/05-1872/06/04
!!!CNT: Polish
!!!OPR: Hrabina
!!!OTL: Uwertura
!!!OMV: 001
!!!PDT:
!!!AGN:
!!!YEC: Copyright 2022 Narodowy Instytut Fryderyka Chopina (https://polishscores.org)
!!!YEM: License CC-BY-4.0 (https://creativecommons.org/licenses/by/4.0)
!!!SMS-siglum: PL-Wumfc
!!!SMS-shelfmark: N53446
!!!SMS-variant:
!!!SMS-altvar:
!!!SMS-shelfwork: 001-001 M
!!!NIFC-rismSourceID: 1001165649
!!!NIFC-rismChildID: 1001165649
!!!NIFC-islandoraID: pl-wumfc:6884
!!!URL-pdf-islandora: https://repozytorium.nifc.pl/islandora/object/pl-wumfc%3A6884/datastream/PDF/view
!!!URL-scan: https://polish.musicsources.pl/pl/lokalizacje/galeria/druki-muzyczne/12579 @EN{Scan on Polish Music Sources Website} @PL{Skany w portalu Dziedzictwo Muzyki Polskiej w otwartym dostępie}
!!!IIIF:
!!!ONB-nifc:
!!!AIN: 1 piano
!!!key: B-
**kern	**kern	**fing	**dynam
*part1	*part1	*	*
*staff2	*staff1	*	*
*I"Piano.	*I"Piano.	*	*
*>[A,B,B1,B,B2,C]	*>[A,B,B1,B,B2,C]	*	*
*>A	*>A	*	*
*Ipiano	*Ipiano	*	*
*ICklav	*ICklav	*	*
*clefF4	*clefG2	*	*
*k[b-e-]	*k[b-e-]	*	*
*B-:	*B-:	*	*
*M3/4	*M3/4	*	*
=1	=1	=1	=1
!	!LO:TX:i:a:t=Moderato.	!	!
4B- 4BB-^^>\	8ffL 8dd 8b- 8f\	.	ff
.	16r	.	.
.	16ffJk 16dd 16b- 16f\	.	.
4D 4DD^^</	4bb- 4ff 4b-\	.	.
4F 4FF^^</	4ddd 4bb- 4ff 4dd\	.	.
=2	=2	=2	=2
*	*8va	*	*
8BB- 8BBB-/	8fffL 8ddd 8bb- 8ff\	.	.
16r	16r	.	.
16B- 16D\	16fffJk 16bb- 16ff\	.	.
4d 4B- 4F\	4ddd 4bb- 4ff/	.	.
4f 4d 4B-\	4bb- 4ff 4b-/	.	.
=3	=3	=3	=3
8BB- 8BBB-/	8fffL 8ddd 8bb- 8ff\	.	.
16r	16r	.	.
16B- 16D\	16fffJk 16bb- 16ff\	.	.
4d 4B- 4F\	4ddd 4bb- 4ff/	.	.
4f 4d 4B-\	4bb- 4ff 4b-/	.	.
=4	=4	=4	=4
8.GL 8.GG/	8.eee-L 8.bb- 8.ee-\	.	.
16E-Jk 16EE-/	16gggJk 16eee- 16bb- 16gg\	.	.
4E- 4EE-/	4ggg 4eee- 4bb- 4gg\	.	.
*clefG2	*	*	*
4g 4e- 4B- 4G/	4ggg 4eee- 4bb- 4gg\	.	.
!!LO:LB:g=original
=5	=5	=5	=5
2.b- 2.f 2.d 2.B-^^</	2.fff 2.ddd 2.bb- 2.ff^^>\	.	.
*clefF4	*	*	*
=6	=6	=6	=6
8.cL 8.G 8.E-\	8.eee-L 8.ccc 8.gg\	.	.
16cJk 16G 16E-\	16eee-Jk 16ccc 16gg\	.	.
4.e- 4.G 4.C^^\	4.ggg 4.eee- 4.gg^^\	.	.
8c 8G 8E-\	8eee- 8ccc 8gg\	.	.
=7	=7	=7	=7
8dL 8B- 8F\	8dddL 8bb- 8ff\	.	.
16r	16r	.	.
16dJk 16B- 16F\	16dddJk 16bb-\	.	.
4.f 4.d 4.F^^\	4.fff 4.ddd 4.ff^^\	.	.
8d 8B- 8F\	8ddd 8bb-\	.	.
=8	=8	=8	=8
8.fL 8.c 8.B- 8.F\	8.cccL 8.bb- 8.ff\	.	.
16fJk 16c 16B- 16F\	16fffJk 16ccc 16bb- 16ff\	.	.
4f 4c 4B- 4F\	4ccc 4bb- 4ff/	.	.
4f 4c 4A 4F\	4ccc 4aa 4ff 4cc/	.	.
=9	=9	=9	=9
8.fL 8.d 8.B-\	8.dddL 8.dd/	.	.
16fJk 16d 16A\	16dddJk 16ccc 16dd/	.	.
8fL 8d 8G\	8dddL 8bb- 8dd/	.	.
8f 8d 8F\	8ddd 8aa 8dd/	.	.
8B- 8G 8E-\	8ddd 8gg 8dd/	.	.
8B-J 8F 8D\	8dddJ 8ff 8dd/	.	.
!!LO:LB:g=original
=10	=10	=10	=10
8cL 8E- 8C\	8eee-L 8gg 8ee-/	.	.
16r	16r	.	.
16cJk 16G 16C\	16eee-Jk 16ccc 16gg/	.	.
4.e-: 4.G: 4.C^^:\	4.ggg 4.ccc 4.gg^^\	.	.
8c 8G 8E-\	8eee- 8ccc 8gg\	.	.
=11	=11	=11	=11
8d 8B- 8F\	8.dddL 8.bb- 8.ff\	.	.
16r	.	.	.
16F 16FF/	16fffJk 16ddd 16bb-\	.	.
4D 4BB- 4DD/	4.bbb- 4.fff 4.bb-^^\	.	.
4BB- 4FF 4BBB-/	.	.	.
.	8ddd 8bb-\	.	.
=12	=12	=12	=12
8FFL 8FFF/	8cccL 8aa\	.	.
16r	16r	.	.
16FJk 16C 16FF/	16fffJk 16aa 16ff\	.	.
8F 8C 8FF/	8ccc 8aa 8ff/	.	.
8r	8r	.	.
8FF 8FFF/	8fff 8ccc 8aa 8ff\	.	sff
*	*X8va	*	*
8r;	8r;	.	.
*kcancel	*kcancel	*	*
=13||	=13||	=13||	=13||
*k[b-]	*k[b-]	*	*
*M6/8	*M6/8	*	*
*^	*	*	*
!!LO:TX:B:a:t=Andantino.
[4.c/	4.E\	(4.cc 4.g/	.	pp
4.c/_	(8F\L	8aL 8f\	.	.
.	8E\)	8cc 8g\	.	.
.	8D\J	8ffJ 8a\)	.	.
=14	=14	=14	=14	=14
4.c/]	4.E\	(4.cc 4.g/	.	.
4.c/	(8F\L	8aL 8f\	.	.
.	8E\)	8cc 8g\)	.	.
.	8D\J	[8aaJ [>8a^\	.	.
!!LO:LB:g=original
=15	=15	=15	=15	=15
*	*	*^	*	*
(>\4.d 4.B-\ 4.G\	4.ryy	8aa/L]	(8a\]	.	.
.	.	16gg/L	8.g\L)	.	.
.	.	16ff/	.	.	.
.	.	16ee/	.	.	.
.	.	16dd/JJ	16f\Jk	.	.
8B-/L)	4.C\	8dd/L	(8f\	.	.
8G/	.	16cc/L	4e\)	.	.
.	.	16b-/	.	.	.
16c/L	.	16a/	.	.	.
16B-/JJ	.	16g/JJ	.	.	.
=16	=16	=16	=16	=16	=16
(4A/	4D\	16f/LL	(4.f\	.	.
.	.	16ff/	.	.	.
.	.	16ee/	.	.	.
.	.	16ee-X/	.	.	.
8Bn/	8G\	16dd/	.	.	.
.	.	16dd-X/JJ	.	.	.
8c/L)	4.C\	(16cc/LL	8e\L)	.	.
.	.	16bn/)	.	.	.
(8A/	.	(16ddn/	8f\	.	.
.	.	16cc#X/)	.	.	.
8B-X/J)	.	(16een/	8g\J	.	.
.	.	16dd/JJ)	.	.	.
=17	=17	=17	=17	=17	=17
(4.G/	4.C\	(4.ccn/	4.e\	.	.
8F/L	8D\L	8a/L	8f\L	.	.
16G/L	8C\	8cc/	8e\	.	.
16A/J	.	.	.	.	.
8B-/J)	8BB-\J	8ff/J)	8d\J	.	.
=18	=18	=18	=18	=18	=18
[4.c/	16AA\LL	(4.cc/	8c\L	.	<
.	16A\JJ	.	.	.	.
.	8BnL 8G#X\	.	8d\	.	.
.	8B-XJ 8Gn\	.	8et>\J	.	.
.	.	16qqd/LL	.	.	.
.	.	16qqe/JJ	.	.	.
8c/L]	8A 8F\	8a/L	4f\	.	.
16B-/L	8r	8cc/	.	.	.
16A/	.	.	.	.	.
16G/	8r	8aa/J)	8cc\	.	.
16F/JJ	.	.	.	.	[
!!LO:PB:g=original
=19	=19	=19	=19	=19	=19
8F/L	4.GG\	(8aa/L	4.bn\	.	sf >
8D/	.	16gg/L	.	.	.
.	.	16ff/	.	.	.
[8G/J	.	16ee/	.	.	.
.	.	16dd/JJ)	.	.	.
8G/L]	4.C\	8dd/L	(16b-X\LL	.	.
.	.	.	16g\J	.	.
(16G/L	.	16dd-X/L	8e\)	.	.
16A/J	.	16cc/	.	.	.
8B-/J	.	16b-/	8e\J	.	.
.	.	16g/JJ	.	.	.
*	*	*v	*v	*	*
=20	=20	=20	=20	=20
4A/)	16F\LL	8f/	.	] p
.	16F\	.	.	.
.	16F\	16r	.	.
.	16F\	16ccLL 16a'/	.	.
16.c/LL	16F\	16g 16e'/	.	.
.	16F\JJ	16b-JJ 16g'/	.	.
32c/JJk	.	.	.	.
16.c/LL	16F\LL	8.aL 8.f\	.	.
.	16F\	.	.	.
32c/K	.	.	.	.
16c/	16F\	.	.	.
16c/	16F\	16ffL 16a'\	.	.
16d/	16F\	16bn 16g#X'\	.	.
16Bn/JJ	16F\JJ	16ddJJ 16g#'\	.	.
=21	=21	=21	=21	=21
*	*	*^	*	*
16cLL 16A/	4.F\	8.ccL 8.a/	8.ryy	.	<
16c 16A/	.	.	.	.	.
16c 16A/	.	.	.	.	.
!	!	!	!LO:N:vis=4.	!	!
16c 16A/	.	(16a/L	8.a\	.	.
16c 16A/	.	16cc/	.	.	.
16cJJ 16A/	.	16aa/JJ	.	.	[
16d-XLL 16A-X/	4.F\	8.aa-X/L	4.a-X\	.	sf >
16d- 16A-/	.	.	.	.	.
16d- 16A-/	.	.	.	.	.
16d- 16A-/	.	16ff/L	.	.	.
16d- 16A-/	.	16dd-X/	.	.	.
16d-JJ 16A-/	.	16cc/JJ)	.	.	]
*v	*v	*	*	*	*
*	*v	*v	*	*
!!LO:LB:g=original
=22	=22	=22	=22
16dnLL 16G 16F'\	8.bn\	.	p
16d 16G 16F'\	.	.	.
16d 16G 16F'\	.	.	.
16d 16G 16F'\	16dd\LL	.	.
16d 16G 16F'\	16.ddd\	.	.
16dJJ 16G 16F'\	.	.	.
.	32ccc\JJk	.	.
16dLL 16A-X 16F'\	(8ccc\L	.	.
16d 16A- 16F'\	.	.	.
16d 16A- 16F'\	16bbn\Jk)	.	.
16d 16A- 16F'\	16ff\LL	.	.
16d 16A- 16F'\	16.aa-X\	.	.
16dJJ 16A- 16F'\	.	.	.
.	32gg\JJk	.	.
=23	=23	=23	=23
*^	*^	*	*
16dLL 16Bn 16G'/	4.F\	(8gg\L	4.ryy	.	.
16d 16B 16G'/	.	.	.	.	.
16d 16B 16G'/	.	16ff\Jk)	.	.	.
!	!	!LO:TUP:a:problem:klamra łukowa	!	!	!
16d 16B 16G'/	.	48ff\LLL	.	.	.
.	.	48gg\	.	.	.
.	.	48ff\JJJ	.	.	.
16d 16B 16G'/	.	16ee'\LL	.	.	.
16dJJ 16B 16G'/	.	16ff'\JJ	.	.	.
16eLL 16B-X 16G'/	4.F\	(8.gg/L	16gg\LL	.	.
16e 16B- 16G'/	.	.	16g\	.	.
16e 16B- 16G'/	.	.	16b-\	.	.
16e 16B- 16G'/	.	16dd-X/L	16dd-\JJ	.	.
16e 16B- 16G'/	.	16.cc/	8ryy	.	.
16eJJ 16B- 16G'/	.	.	.	.	.
.	.	32b-/JJk)	.	.	.
*	*	*v	*v	*	*
!!LO:LB:g=original
=24	=24	=24	=24	=24
16F\LL	16f 16A-X/	8a-X'/	.	.
16c 16E'\	16ryy	.	.	.
16c 16E-X'\	4ryy	16r	.	.
!	!	!	!	!LO:HP:b:t=cre-scen-do:ext2=cd
16c 16D'\	.	16ccLL 16a-'/	.	<
16c 16D-X'\	.	16g 16e'/	.	.
16cJJ 16C'\	.	16b-JJ 16g 16e'/	.	.
16cLL 16F'\	4ryy	8.a-L 8.f/	.	.
16c 16En'\	.	.	.	.
16c 16E-X'\	.	.	.	.
16c 16Dn'\	.	16ffL 16a- 16f/	.	.
16d-X 16D-X'\	8ryy	16b- 16g 16f/	.	.
16cJJ 16C'\	.	16dd-XJJ 16b- 16e/	.	.
*v	*v	*	*	*
=25	=25	=25	=25
16F 16FF/	[<8ccL [8a-X [8f/	.	.
16cLL 16A-X 16F\	.	.	.
16c 16A- 16F\	16cc]Jk 16a-] 16f/]	.	.
16c 16A- 16F\	[<16cc\LL	.	.
16c 16A- 16F\	16.ccc 16.cc\]	.	[
16cJJ 16A- 16F\	.	.	.
.	32bb-JJk 32b-\	.	.
16d-XLL 16A- 16F'\	8.bb-L 8.b-^\	.	f
16d- 16A- 16F'\	.	.	.
16d- 16A- 16F'\	.	.	.
16d- 16A- 16F'\	16aa-XL 16a-X\	.	.
16d- 16A- 16F'\	16gg 16g\	.	.
16d-JJ 16A- 16F'\	16ffJJ 16f\	.	.
=26	=26	=26	=26
!	!	!	!LO:HP:b:t=diminuendo
16d-XLL 16B- 16G\	(8ffL 8f\	.	>
16d- 16B- 16G\	.	.	.
16d- 16B- 16G\	16eeJk 16e\)	.	.
16d- 16B- 16G\	16b-\LL	.	.
16d- 16B- 16G\	16.bb-\	.	.
16d-JJ 16B- 16G\	.	.	.
.	32aa-X\JJk	.	.
16d-LL 16B- 16G\	8aa-\L	.	.
16d- 16B- 16G\	.	.	.
16d- 16B- 16G\	16gg\Jk	.	.
16d- 16B- 16G\	16b-\LL	.	.
16d- 16B- 16G\	16.dd-X\	.	.
16d-JJ 16B- 16G\	.	.	.
.	32cc\JJk	.	.
!!LO:LB:g=original
=27	=27	=27	=27
*^	*	*	*
16eLL 16c 16B-/	4.G\	(8cc\L	.	p
16e 16c 16B-/	.	.	.	.
16e 16c 16B-/	.	16b-\Jk)	.	.
!	!	!LO:TUP:a:problem:klamra łukowa	!	!
16e-X 16d 16B-/	.	48b-\LLL	.	.
.	.	48cc\	.	.
.	.	48b-\JJJ	.	.
16e- 16d 16B-/	.	16a'/LL	.	.
16e-JJ 16d 16B-/	.	16b-'/JJ	.	.
16e-LL 16c 16B-/	(16G^\LL	8.cc\L	.	.
16e- 16c 16B-/	16G-X\JJ)	.	.	.
16e- 16c 16B-/	4G-\	.	.	.
!	!	!LO:TUP:a:problem:klamra łukowa	!	!
16e-X 16d 16B-/	.	48b-\LL	.	.
.	.	48cc\	.	.
.	.	48b-\J	.	.
16e- 16c 16B-/	.	16a'\	.	.
16e-JJ 16d 16B-/	.	16b-'\JJ	.	.
=28	=28	=28	=28	=28
16eLL 16c 16B-/	16G-X^\LL	8.cc\L	.	.
16e-X 16c 16B-/	16G-\	.	.	.
16e- 16c 16B-/	16G-\	.	.	.
!	!	!LO:TUP:a:problem:klamra łukowa	!	!
16e- 16d-X 16B-/	16G-\	48b-\LL	.	.
.	.	48cc\	.	.
.	.	48b-\J	.	.
16e- 16c 16B-/	16G-\	16a'\	.	.
16e-JJ 16d- 16B-/	16G-\JJ	16b-'\JJ	.	.
!	!	!LO:N:vis=8.	!	!
16e-'>LL 16c 16B- 16G-\	8ryy	[8cc\L	.	.
16e-'> 16c 16B-- 16G-\	.	.	.	.
16e-'>JJ 16c 16A-X 16G-\	4ryy	32cc\LL]	.	<
.	.	32dd-X\	.	.
16A-LL 16AA-X'/	.	32ee-X 32e-X\	.	.
.	.	32ff 32f\	.	.
16G- 16GG-X'/	.	32gg-X 32g-X\	.	.
.	.	32aa-X 32a-X\	.	.
16E-XJJ 16EE-X'/	.	32bb- 32b-\	.	.
.	.	32cccJJJ 32cc\	.	[[
!!LO:LB:g=original
=29	=29	=29	=29	=29
16D-X 16DD-X/	4.ryy	8.ddd-X 8.ff 8.dd-X\	.	ff
(16A-X\LL	.	.	.	.
16f 16d-X 16F\)	.	.	.	.
(16A-\	.	(16ff\LL	.	.
16F\	.	16aa-X\)	.	.
16D-\JJ)	.	16fffJJ 16aa- 16ff'\	.	.
16c/LL	(8AA-X\L	(8eee-XL 8gg-X 8ee-X\	.	.
16A-X/	.	.	.	.
16d-/JJ	16D-\Jk)	16ddd-Jk 16ff 16dd-\)	.	.
(16F/LL	8.ryy	(16dd-\LL	.	.
16D-/	.	16ff\)	.	.
16BB-/JJ)	.	16ddd-JJ 16ff 16dd-'\	.	.
=30	=30	=30	=30	=30
(16An/LL	(8FF\L	(8cccL 8ee-X 8cc\	.	.
16F/	.	.	.	.
16B-/JJ)	16GG-X\Jk)	16bb-Jk 16ee- 16b-\)	.	.
16e-XLL 16c 16G-X'\	8.ryy	16aaLL 16a'\	.	<
16e- 16B- 16G-'\	.	16bb- 16b-'\	.	.
16e-JJ 16A 16G-'\	.	16cccJJ 16cc'\	.	[
16e- 16B- 16G-\	4.ryy	16ddd-X 16dd-X\	.	>
32r	.	16r	.	]
32B-\	.	.	.	.
16B-^^</LL	.	16r	.	.
16A-X 16BB- 16AA-X^^</	.	16dddnLL 16bb- 16ddn^^\	.	.
16G-X 16BB- 16GG-X^^</	.	16eee-X 16bb- 16ee-^^\	.	.
16FJJ 16BB- 16FF^^</	.	16fffJJ 16ddd 16aa-X 16ff^^\	.	.
!!LO:PB:g=original
=31	=31	=31	=31	=31
2.E-X/	16BB- 16EE-X\	16bbb-X 16ggg-X 16bb- 16gg-X\	.	.
.	16r	16r	.	.
.	8r	8r	.	.
.	8r	8r	.	.
.	4r	4r	.	.
.	8r	8r	.	.
*v	*v	*	*	*
=32	=32	=32	=32
(4.Bn 4.D#X\	(4.bn 4.f#X/	.	ppp
8BL 8E\	8g#XL 8e/	.	.
8B 8D#\	8b 8f#/	.	.
8BJ 8E\)	8eeJ 8g#/)	.	.
=33	=33	=33	=33
4.c 4.B-X 4.E\	(4.cc 4.gn/	.	f <
8cL 8A 8F\	8aL 8f\	.	.
8e 8c 8G\	8cc 8b-\	.	.
8fJ 8c 8A\	[8aaJ 8cc [8a\)	.	[
=34	=34	=34	=34
*	*^	*	*
*ped	*	*	*	*
4.d: 4.G: 4.F: 4.BB-:^^>\	8aa]L 8a\]	4.ryy	.	f
.	16ggL 16g\	.	.	.
.	16ff 16f\	.	.	.
*Xped	*	*	*	*
.	16ee 16e\	.	.	.
.	16ddJJ 16d\	.	.	.
4.B- 4.E 4.C\	(8dd/L	4.c\	.	>
.	16cc/L)	.	.	.
.	16b-/	.	.	.
.	16a/	.	.	.
.	16g/JJ	.	.	]
!!LO:LB:g=original
=35	=35	=35	=35	=35
*^	*	*	*	*
(8A/L	4.D\	(16f/LL	4.f\	.	<
.	.	16ff/	.	.	.
8B-/	.	16ee/	.	.	.
.	.	16ee-X/	.	.	.
8Bn/J	.	16dd/	.	.	.
.	.	16dd-X/JJ	.	.	.
!	!LO:TX:t=P:problem:błędne wyświetlanie łuku	!	!	!	!
4.c/)	(>8E\L	16cc/LL	8g\L	.	.
.	.	16bn/	.	.	.
.	8F\	16ddn/	8g#X\	.	.
.	.	16cc#X/	.	.	.
.	8F#X\J	16een/	8a\J	.	.
.	.	16dd/JJ	.	.	[
=36	=36	=36	=36	=36	=36
4.c 4.G/)	2.C\	4.ccn 4.b- 4.e/)	16r	.	fp
*	*	*	*cue	*	*
*	*	*	*Xtuplet	*	*
!	!	!	!LO:TX:t=P:problem:oznaczenie dynamiczne pomniejszone	!	!
.	.	.	48gg\LLL	.	ppp
.	.	.	48aa\	.	.
.	.	.	48gg\JJJ	.	.
.	.	.	16ee'>\LL	.	.
.	.	.	16cc'>\	.	.
.	.	.	16b-'>\	.	.
.	.	.	16g'>\JJ	.	.
8cL 8A 8F/	.	8a\L	(>16a/LL	.	.
.	.	.	16cc/JJ)	.	.
8c 8B- 8E/	.	8cc\	(>16cc/LL	.	.
.	.	.	16ccc/JJ)	.	.
8cJ 8A 8F/	.	8ff\J	(>16ff/LL	.	.
.	.	.	16aa/JJ)	.	.
*	*	*	*Xcue	*	*
=37	=37	=37	=37	=37	=37
4.c 4.B-/	4.E 4.C\	4.cc 4.g/	16r	.	.
*	*	*	*cue	*	*
.	.	.	48gg\LLL	.	.
.	.	.	48aa\	.	.
.	.	.	48gg\JJJ	.	.
*	*	*	*tuplet	*	*
.	.	.	16ee'>\LL	.	.
.	.	.	16cc'>\	.	.
.	.	.	16b-'>\	.	.
.	.	.	16g'>\JJ	.	.
8cL 8A 8F\	4.ryy	8a\L	(>16a/LL	.	<
.	.	.	16cc/JJ)	.	.
8c 8B- 8E\	.	8cc\	(>16cc/LL	.	.
.	.	.	16ccc/JJ)	.	.
*	*	*	*Xcue	*	*
8cJ 8A 8F\	.	(16ff\L	8ryy	.	.
.	.	16aa\JJ)	.	.	[
*v	*v	*	*	*	*
*	*v	*v	*	*
!!LO:LB:g=original
=38	=38	=38	=38
16FLL 16D 16GG/	16aaLL 16bn\	.	f
32r	32r	.	.
!	!	!	!LO:HP:t=dimin. e ritard.:ext=2:dur=2qe
32FJJk 32D 32GG/	32aa-XK 32b\	.	>
16FLL 16D 16GG'/	16gg 16b'\	.	.
16F 16D 16GG'/	16ff 16b'\	.	.
16F 16D 16GG'/	16dd 16b'\	.	.
16FJJ 16D 16GG'/	16bJJ 16f'\	.	.
16C 16CC/	16ddLL 16b-X 16e^/	.	.
32r	32r	.	.
32B- 32G 32C\	32dd-XK 32b- 32e'/	.	.
16B-LL 16G 16C'\	16cc 16e'/	.	.
16G 16C'\	16b- 16e'/	.	.
16c 16G 16C'\	16g 16e'/	.	.
16B-JJ 16G 16C'\	16ccJJ 16e'/	.	.
=39	=39	=39	=39
*^	*^	*	*
(16FF/LL	4.FF\	8f 8A</	4.ryy	.	p
16C/	.	.	.	.	.
16F/	.	16r	.	.	.
16C/	.	16ffLL 16a'\	.	.	<
16D-X/	.	16b- 16g'\	.	.	.
16BB-/JJ)	.	16dd-XJJ 16f'\	.	.	.
(16FF/LL	4.FF\	8.ccL 8.a\	8.ryy	.	.
16C/	.	.	.	.	.
16F/	.	.	.	.	.
16E/	.	(16a\L	8a/	.	.
16E-X/	.	16cc\	.	.	.
16Dn/JJ)	.	16aa\JJ)	16ryy	.	[
!!LO:LB:g=original
=40	=40	=40	=40	=40	=40
*ped	*	*	*	*	*
(16D-XLL 16FF\	4.ryy	(8.aa-X/L	4dd-X 4a-X\	.	sf
16F\	.	.	.	.	.
16A-X\	.	.	.	.	.
16d-X\	.	16ff/L	.	.	.
*Xped	*	*	*	*	*
16f 16F\	.	16.dd-/	8a-\	.	.
16e-X\JJ)	.	.	.	.	.
.	.	32cc/JJk	.	.	.
16dn/LL	(4F\	8.bn/L	8a-\L	.	.
16Bn/	.	.	.	.	.
16A-X/	.	.	8f\J	.	.
16F/JJ	.	32cc/LL	.	.	.
.	.	32ddn/JJJ	.	.	.
16c/LL	16En\LL	16.cc/LL	16g\LL	.	.
16B-X/JJ	16C\JJ)	.	16e\JJ	.	.
.	.	64g/LL	.	.	.
.	.	64a-/JJJJ	.	.	.
*	*	*v	*v	*	*
=41	=41	=41	=41	=41
(16A/LL	4.FF\	8.f/)	.	.
16C/	.	.	.	.
16F/	.	.	.	.
16C/	.	16ccLL 16a'/	.	pp
16D-X/	.	16g 16e'/	.	.
16BB-/JJ)	.	16b-JJ 16e'/	.	.
(<16FF/LL	4.FF\	8.a 8.f/	.	.
16C/	.	.	.	.
16A/	.	.	.	.
16G/	.	(16cc\LL	.	.
16F/	.	16ff\)	.	.
16E/JJ)	.	16cccJJ 16cc\	.	.
!!LO:LB:g=original
=42	=42	=42	=42	=42
*	*	*^	*	*
!LO:TX:t=P:problem:mixed beam	!	!	!	!	!
16Dn/LL	8FF\	(8.bbn/L	8.aa-X 8.ff 8.bn\	.	f
16F/	.	.	.	.	.
16A-X/	8r	.	.	.	.
16Bn/	.	16aa-L 16a-X/	16ryy	.	.
16d>\	8F\	16ff/	8ryy	.	.
16f>\JJ	.	16dd/JJ)	.	.	.
16f/LL	4F\	8.dd-X/L	16b-X\LL	.	>
16d-X/	.	.	16f\	.	.
16B-X/	.	.	16g\	.	.
16G/	.	16b-/L	16f\	.	.
16F/	8FF\	16g/	16d-X\	.	.
16D-X/JJ	.	16f/JJ	16B-\JJ	.	]
*	*	*v	*v	*	*
=43	=43	=43	=43	=43
16F/LL	8.FF\L	8f 8A/	.	.
16C/JJ	.	.	.	.
[4F^>/	.	16r	.	.
.	16BB-'\L	16fLL 16d-X 16B-'/	.	pp
.	16FF'\	16f 16c 16A'/	.	.
.	16BB-'\JJ	16fJJ 16d- 16B-'/	.	.
16F/LL]	8.FF\L	8.fL 8.c 8.A/	.	.
16C/JJ	.	.	.	.
4F^/	.	.	.	.
.	16D-XL 16BB-'\	16fL 16d- 16B-'/	.	pp
.	16C 16FF'\	16f 16c 16A'/	.	.
.	16D-JJ 16BB-'\	16fJJ 16d- 16B-'/	.	.
*v	*v	*	*	*
=44	=44	=44	=44
8FL 8C 8FF'/	8fL 8A 8F'/	.	.
8C 8FF 8CC'/	8f 8A 8F'/	.	.
8AAJ 8FF 8AAA'/	8fJ 8A 8F'/	.	.
4.FF 4.CC 4.FFF;/	4.f 4.A 4.F;/	.	.
!!LO:PB:g=original
=45||	=45||	=45||	=45||
*k[b-e-]	*k[b-e-]	*	*
*M3/4	*M3/4	*	*
*	*^	*	*
!!LO:TX:B:a:t=Allegro moderato.
8BB-'<\	4r	2ryy	.	.
8rGG	.	.	.	.
4rGG	8d 8B-< 8F</	.	.	.
.	8r	.	.	.
8FF'<\	4f^/	8d 8B-\	.	.
8r	.	8r	.	.
=46	=46	=46	=46	=46
8BB-'<\	4r	2ryy	.	.
8rGG	.	.	.	.
4rGG	8d 8B-< 8F</	.	.	.
.	8r	.	.	.
8FF'<\	4f^/	8d 8B-\	.	.
8r	.	8r	.	.
=47	=47	=47	=47	=47
8BB-'<\	4r	2ryy	.	.
8rGG	.	.	.	.
4rGG	8d 8B-< 8F</	.	.	.
.	8r	.	.	.
8FF'<\	4f^/	8d 8B-\	.	.
8r	.	8r	.	.
=48	=48	=48	=48	=48
8BB-'<\	4r	2ryy	.	.
8rGG	.	.	.	.
4rGG	8d'> 8B-< 8F</	.	.	.
.	8r	.	.	.
8FF'<\	4f^/	8d 8B-\	.	.
8r	.	8r	.	.
*	*v	*v	*	*
=49	=49	=49	=49
!	!LO:TX:i:b:t=dolcissimo	!	!
8BB-/	8f 8d/	.	.
8r	8r	.	.
8B- 8F\	(8gL 8e-'/	.	.
8r	8a 8f'/	.	.
8FF/	8b- 8g'/	.	.
8r	8ccJ 8a'/)	.	.
=50	=50	=50	=50
8BB-/	8dd 8b-\	.	.
8r	8r	.	.
8d 8B-\	8cc 8a/	.	.
8r	8r	.	.
8F\	8b- 8g/	.	.
8r	8r	.	.
!!LO:LB:g=original
=51	=51	=51	=51
8C/	(8aL 8f'\	.	.
8r	8b- 8g'\	.	.
8e- 8A\	8cc 8a'\	.	.
8r	8dd 8b-'\	.	.
8F\	8ee- 8cc'\	.	.
8r	8ffJ 8dd'\)	.	.
=52	=52	=52	=52
8C/	2gg 2ee-\	.	.
8r	.	.	.
8e- 8B-\	.	.	.
8r	.	.	.
8G\	4gg 4ee- 4b-\	.	.
8r	.	.	.
=53	=53	=53	=53
8F\	(4gg 4ee- 4a^\	.	p
8r	.	.	.
8e- 8c\	8gg-X\L	.	.
8r	8ee-\	.	.
8F\	8cc\	.	.
8r	8a\J)	.	.
=54	=54	=54	=54
8FF/	(4ff 4cc 4a^\	.	p
8r	.	.	.
8e-X 8c\	8een\L	.	.
8r	8ee-X\	.	.
8F\	8cc\	.	.
8r	8a\J)	.	.
=55	=55	=55	=55
8BB-/	(8cc\L	.	.
8r	8b-\	.	.
8d 8B-\	8a\	.	.
8r	8b-\	.	.
8F\	8dd\	.	.
8r	8b-\J)	.	.
!!LO:LB:g=original
=56	=56	=56	=56
8D\	4f/	.	.
8r	.	.	.
8d 8B-\	4r	.	.
8r	.	.	.
8F\	8fL 8d'/	.	.
8r	8fJ 8d'/	.	.
=57	=57	=57	=57
8BB-/	8f 8d'/	.	.
8r	8r	.	.
8B- 8F\	(8gL 8e-'/	.	.
8r	8a 8f'/	.	.
8FF/	8b- 8g'/	.	.
8r	8ccJ 8a'/)	.	.
=58	=58	=58	=58
8BB-/	8dd 8b-\	.	.
8r	8r	.	.
8d 8B-\	8cc 8a/	.	.
8r	8r	.	.
8F\	8b- 8g/	.	.
8r	8r	.	.
=59	=59	=59	=59
8C/	(8aL 8f'\	.	.
8r	8b- 8g'\	.	.
8e- 8A\	8cc 8a'\	.	.
8r	8dd 8b-'\	.	.
8F\	8ee- 8cc'\	.	.
8r	8ffJ 8dd'\)	.	.
=60	=60	=60	=60
*	*^	*	*
8C/	2gg\ 2ee-\	2ryy	.	.
8r	.	.	.	.
8e- 8B-\	.	.	.	.
8r	.	.	.	.
8G\	4gg 4ee-/	8b-\L	.	.
8r	.	8b-\J	.	.
*	*v	*v	*	*
!!LO:LB:g=original
=61	=61	=61	=61
8F\	(4gg 4ee- 4a^\	.	.
8r	.	.	.
8e- 8c\	8gg-X\L	.	.
8r	8ee-\	.	.
8F\	8cc\	.	.
8r	8a\J)	.	.
=62	=62	=62	=62
8FF/	(4ff 4cc 4a^\	.	.
8r	.	.	.
8c 8A\	8een\L	.	.
8r	8ee-X\	.	.
8F\	8cc\	.	.
8r	8a\J)	.	.
=63	=63	=63	=63
8BB-/	(8cc/L	.	.
8r	8b-/	.	.
8d 8B-\	8a/	.	.
8r	8b-/	.	.
8F\	8dd/	.	.
8r	8f/J)	.	.
=64	=64	=64	=64
8GG/	2b-\	.	.
8r	.	.	.
8f 8d 8B-\	.	.	.
8r	.	.	.
8F\	(8b-L 8g/	.	.
8r	8aJ 8f/	.	.
=65	=65	=65	=65
8C 8CC/	8g 8en/)	.	.
8r	8r	.	.
8c\	(8aL 8f'/	.	.
8r	8b- 8g'/	.	.
(4C^/	8cc 8a'/	.	.
.	8ddJ 8b-'/)	.	.
!!LO:LB:g=original
=66	=66	=66	=66
8CC/)	8een 8cc\	.	.
8r	8r	.	.
8d 8B- 8G\	8dd 8b-\	.	.
8r	8r	.	.
8en 8c\	8dd 8cc\	.	.
8r	8r	.	.
=67	=67	=67	=67
8C/	8cc 8a\	.	.
8r	8r	.	.
8f 8c\	(8ddL 8b-'\	.	.
8r	8een 8cc'\	.	.
8A\	8ff 8dd'\	.	.
8r	8ggJ 8ee'\)	.	.
=68	=68	=68	=68
8C/	2aa 2ff\	.	.
8r	.	.	.
8f 8A\	.	.	.
8r	.	.	.
8f 8c\	4aa 4cc\	.	.
8r	.	.	.
=69	=69	=69	=69
*	*^	*	*
!	!	!LO:TUP:b:problem:klamra łukowa	!	!
8C/	(4aa/	12cc\L	.	.
.	.	12dd\	.	.
8r	.	.	.	.
.	.	12cc\J	.	.
8f 8d\	8gg/)	8bn\	.	.
8r	8r	8ryy	.	.
8f 8d 8F\	8dd/	8b 8g\	.	.
8r	8r	8ryy	.	.
=70	=70	=70	=70	=70
!	!LO:TUP:a:problem:klamra łukowa	!	!	!
8C/	12ff/L	4dd\	.	.
.	12gg/	.	.	.
8r	.	.	.	.
.	12ff/J	.	.	.
8c 8G\	8een/	8cc\	.	.
8r	8r	8ryy	.	.
8C/	[4gg/	(4b-X\	.	.
8r	.	.	.	.
!!LO:PB:g=original
=71	=71	=71	=71	=71
8FF/	8gg/]	8a\)	.	.
8r	8r	8ryy	.	.
8f 8c 8F\	8ff/	8a\	.	.
8r	8r	8ryy	.	.
8f 8d 8B- 8F\	8dd/	8b-\	.	.
8r	8r	8ryy	.	.
*	*v	*v	*	*
=72	=72	=72	=72
8FF/	(2cc 2a/	.	.
8r	.	.	.
8c 8A 8F\	.	.	.
8r	.	.	.
(4C^/	4a 4f/)	.	.
=73	=73	=73	=73
8CC/)	8g 8en'/	.	.
8r	8r	.	.
8c\	(<8aL 8f'/	.	.
8r	8b- 8g'/	.	.
(4C^/	8cc 8a'/	.	.
.	8ddJ 8b-'/	.	.
=74	=74	=74	=74
8CC/)	8een 8cc\)	.	.
8r	8r	.	.
8d 8B- 8G\	8dd 8b-\	.	.
8r	8r	.	.
8en 8c\	8cc 8b-\	.	.
8r	8r	.	.
=75	=75	=75	=75
8C/	8cc 8a\	.	.
8r	8r	.	.
8f 8c\	(8ddL 8b-'\	.	<
8r	8ee- 8cc'\	.	.
8A\	8ff 8dd'\	.	.
8r	8ggJ 8ee-'\)	.	[
!!LO:LB:g=original
=76	=76	=76	=76
*	*^	*	*
8C/	2aa\ 2ff\	2ryy	.	.
8r	.	.	.	.
8f 8A\	.	.	.	.
8r	.	.	.	.
(4c^\	4aa/	8cc\L	.	.
.	.	8cc\J	.	.
=77	=77	=77	=77	=77
8C/)	(4aa/	12cc\L	.	>
.	.	12dd\	.	.
8r	.	.	.	.
.	.	12cc\J	.	.
8f 8d\	8gg/)	8bn\	.	]]
8r	8r	8ryy	.	.
8G\	8dd 8b\	4ryy	.	.
8r	8r	.	.	.
=78	=78	=78	=78	=78
8C/	(12ff/L	(4dd\	.	.
.	12gg/	.	.	.
8r	.	.	.	.
.	12ff/J	.	.	.
8c 8G\	8een/)	8cc\)	.	.
8r	8r	8ryy	.	.
8C/	8gg 8b-X\	4ryy	.	.
8r	8ryy	.	.	.
*	*v	*v	*	*
=79	=79	=79	=79
4f 4c 4F\	4ff 4a\	.	<
.	(8qgg/	.	.
4f 4G 4F\	4ff 4b-\)	.	.
.	(8qgg/	.	.
4f 4G#X 4F\	4ff 4bn\)	.	.
=80	=80	=80	=80
.	(8qgg/	.	.
4f 4A 4F\	4ff 4cc\)	.	.
.	(8qgg/	.	.
4f 4B- 4F\	4ff 4dd-X\)	.	.
.	(8qgg/	.	.
4f 4Bn 4F\	4ff 4ddn 4a-X\)	.	.
!!LO:LB:g=original
=81	=81	=81	=81
.	(16qqgg/LL	.	ff
.	16qqff/JJ	.	.
8FF/	8f/)	.	.
8r	8r	.	.
8e- 8c\	8g'/L	.	p <
8r	8an 8f'/	.	.
8F\	8b- 8g'/	.	.
8r	8ccJ 8a'/	.	[[
=82	=82	=82	=82
8BB-/	8dd 8b-\	.	.
8r	8r	.	.
8d 8B-\	8cc 8a/	.	.
8r	8r	.	.
8F\	8b- 8g/	.	.
8r	8r	.	.
=83	=83	=83	=83
8C/	(8aL 8f'\	.	.
8r	8b- 8g'\	.	.
8e- 8A\	8cc 8a'\	.	.
8r	8dd 8b-'\	.	.
8F\	8ee- 8cc'\	.	.
8r	8ffJ 8dd'\	.	.
=84	=84	=84	=84
8C/	2gg 2ee-\)	.	.
8r	.	.	.
8e- 8B-\	.	.	.
8r	.	.	.
8G\	4gg 4ee- 4b-\	.	.
8r	.	.	.
=85	=85	=85	=85
8F\	(4gg 4ee- 4a^\	.	p
8r	.	.	.
8e- 8c\	8gg-X\L	.	.
8r	8ee-\	.	.
8F\	8cc\	.	.
8r	8a\J)	.	.
!!LO:LB:g=original
=86	=86	=86	=86
8FF/	(4ff 4cc 4a^\	.	p
8r	.	.	.
8e-X 8c\	8een\L	.	.
8r	8ee-X\	.	.
8F\	8cc\	.	.
8r	8a\J)	.	.
=87	=87	=87	=87
8BB-/	(8cc\L	.	.
8r	8b-\	.	.
8d 8B-\	8a\	.	.
8r	8b-\	.	.
8F\	8dd\	.	.
8r	8b-\J)	.	.
=88	=88	=88	=88
8D\	4f/	.	.
8r	.	.	.
8d 8B-\	4r	.	.
8r	.	.	.
8F\	8fL 8d/	.	.
8r	8fJ 8d/	.	.
=89	=89	=89	=89
8BB-/	8f 8d/	.	.
8r	8r	.	.
8d 8B-\	(8gL 8e-'/	.	.
8r	8a 8f'/	.	.
8BB-/	8b- 8g'/	.	.
8r	8ccJ 8a'/)	.	.
=90	=90	=90	=90
8GG/	8dd 8b-\	.	.
8r	8r	.	.
8en 8B-\	8cc 8g/	.	.
8r	8r	.	.
8c 8G\	8b- 8en/	.	.
8r	8r	.	.
!!LO:LB:g=original
=91	=91	=91	=91
8FF/	(8aL 8f'\	.	<
8r	8b- 8g'\	.	.
8f 8c\	8cc 8a'\	.	.
8r	8dd 8b-'\	.	.
8f 8A\	8ee-X 8cc'\	.	.
8r	8ffJ 8dd'\	.	[[
=92	=92	=92	=92
8EE-/	2gg 2ee-\)	.	.
8r	.	.	.
8g 8c 8G\	.	.	.
8r	.	.	.
8e- 8c\	8ggL 8g\	.	.
8r	8ggJ 8g\	.	.
=93	=93	=93	=93
4c 4D^\	(4gg [4a^\	.	.
8c 8D'\	8ff#XL 8a\])	.	.
8r	(8dd\	.	.
4r	8cc#X\	.	.
.	8dd\J)	.	.
=94	=94	=94	=94
4c 4D#X^\	(4ff#X [4a\	.	.
8c 8D#'\	8ffnL 8a\])	.	.
8r	(8cc\	.	.
4r	8bn\	.	.
.	8cc\J)	.	.
=95	=95	=95	=95
4c 4En^\	(4ff [4a^\	.	.
8c 8E'\	8eenL 8a\])	.	.
8r	8cc\	.	<
4r	8bn\	.	.
.	8cc\J	.	.
=96	=96	=96	=96
4A 4F\	8ffL 8a\	.	.
.	8ee-X\J	.	.
.	8qff/	.	.
4r	8ee-\L	.	.
.	8dd\	.	.
4r	8ee-\	.	.
.	8ff\J	.	[
!!LO:PB:g=original
=97	=97	=97	=97
!!LO:TX:B:a:t=Più mosso.
2F#X 2D 2FF#X^^</	2ddd 2aa 2dd^^\	.	ff
8dL 8A 8F#'\	8cccL 8cc'\	.	.
8dJ 8B- 8G'\	8bb-J 8b-'\	.	.
=98	=98	=98	=98
4d 4c 4A'\	4aa 4a\	.	.
4d 4B-'\	4gg 4g\	.	.
4d 4c'\	4ff#X 4f#X\	.	.
=99	=99	=99	=99
8d 8B-\	8gg 8g\	.	.
8r	8r	.	.
4B-^^\	8gg\L	.	.
.	8aa\	.	.
4G^^\	8bb-\	.	.
.	8ccc\J	.	.
=100	=100	=100	=100
4D'^^\	8ddd\L	.	.
.	8ccc\	.	.
4BB-'^^</	8bb-\	.	.
.	8aa\J	.	.
8GG'^^</	8gg\	.	.
8r	8r	.	.
=101	=101	=101	=101
8c 8G 8E-\	8.ccc\L	.	.
8r	.	.	.
.	16eee-\Jk	.	.
2c 2G 2E-^^\	4.ggg 4.gg^^\	.	.
.	8ccc\	.	.
=102	=102	=102	=102
8d 8G 8D\	8.bb-\L	.	.
8r	.	.	.
.	16ddd\Jk	.	.
2d 2B- 2G 2D^^\	4.ggg 4.gg^^\	.	.
.	8bb-\	.	.
!!LO:LB:g=original
=103	=103	=103	=103
*^	*	*	*
4r	2C#X\	8.aa\L	.	.
.	.	16bb-\Jk	.	.
8A 8En/	.	8aa\	.	.
8r	.	8r	.	.
*v	*v	*	*	*
*	*8va	*	*
*^	*	*	*
8A 8E 8AA\	4ryy	8aaa 8eee#X 8cccn 8aa\	.	.
8r	.	8r	.	.
*v	*v	*	*	*
=104	=104	=104	=104
8A 8D\	8fff#X 8ddd 8aa\	.	.
8r	8r	.	.
8A 8En 8AA\	8eeen 8ccc#X 8aa 8gg\	.	.
8r	8r	.	.
8A 8D\	8ddd 8aa 8ff#X/	.	.
*	*X8va	*	*
8r	8r	.	.
=105	=105	=105	=105
2G 2D 2GG/	2ddd 2bb- 2gg 2dd\	.	sff
8cL 8A\	8cccL 8cc\	.	.
8dJ 8B-\	8bb-J 8b-\	.	.
=106	=106	=106	=106
4e- 4c'\	4aa 4a'\	.	.
4d 4B-'\	4gg 4dd 4g'\	.	.
4d 4c 4A'\	4ff#X 4dd 4f#X'\	.	.
=107	=107	=107	=107
8d 8B-'\	8gg 8g'\	.	.
8r	8r	.	.
4d^^\	8gg\L	.	.
.	8aa\	.	.
4B-^^\	8bb-\	.	.
.	8ccc\J	.	.
=108	=108	=108	=108
4G^^\	8ddd\L	.	.
.	8ccc\	.	.
4D^^\	8bb-\	.	.
.	8aa\J	.	.
8G\	8gg\	.	.
8r	8r	.	.
*clefG2	*	*	*
!!LO:LB:g=original
=109	=109	=109	=109
(16a^/LL	(16aa^\LL	.	.
16g/	16gg\	.	.
16f/	16ff\	.	.
16en/JJ)	16een\JJ)	.	.
8d'/	8dd'\	.	.
8r	8r	.	.
*clefF4	*	*	*
8A 8F 8D 8AA\	8ddd 8aa 8ff 8dd\	.	sf
8r	8r	.	.
=110	=110	=110	=110
(16en\LL	(16een\LL	.	.
16d\	16dd\	.	.
16c#X\	16cc#X\	.	.
16Bn\JJ	16bn\JJ	.	.
8A\)	8a/)	.	.
8r	8r	.	.
8A 8En 8AA\	8aa 8ee 8cc# 8a\	.	sf
8r	8r	.	.
=111	=111	=111	=111
4D^^\	4dd 4d^^</	.	.
8d'\L	8dd'\L	.	.
8d'\J	8dd'\J	.	.
4d'\	4dd'\	.	.
=112	=112	=112	=112
!	!LO:TX:i:b:t=dolce	!	!
2.r	(4ddd 4dd\	.	p
.	4ccc#X 4cc#X\	.	.
.	4cccn 4ccn\)	.	.
=113	=113	=113	=113
8GG'/	(2bbn 2bn\	.	p
8G\L	.	.	.
8f 8d\	.	.	.
8G\	.	.	.
8f 8d\	4gg\)	.	.
8G\J	.	.	.
=114	=114	=114	=114
8GG'/	4gg\	.	.
8G\L	.	.	.
8d 8Bn\	8aa\L	.	<
8G\	8bbn\	.	.
8f 8d\	8ccc\	.	.
8G\J	8ddd\J	.	[[
!!LO:LB:g=original
=115	=115	=115	=115
8C/	([2.eee- [2.ee-\	.	>]
(8G\L	.	.	.
8e- 8c\	.	.	.
8G\	.	.	.
8e- 8c\	.	.	.
8G\J)	.	.	.
=116	=116	=116	=116
8AA-X'/	4eee-] 4ee-\]	.	p
(8A-X\L	.	.	.
8e- 8c\	4ccc 4cc\	.	.
8A-\	.	.	.
8e- 8c\	4ddd 4dd\	.	.
8A-\J)	.	.	.
=117	=117	=117	=117
8BB-'/	4eee- 4ee-\	.	>
(8B-\L	.	.	.
8e- 8G\	4bb-\	.	]
8B-\	.	.	.
.	8qddd/	.	.
8e- 8G\	4ccc 4cc\	.	.
8B-\J)	.	.	.
=118	=118	=118	=118
(8BB-\L	2bb- 2b-^\	.	.
8B-\	.	.	.
8d 8A-X\	.	.	.
8B-\	.	.	.
8d 8F\	4aa-X 4a-X\	.	.
8B-\J)	.	.	.
=119	=119	=119	=119
(8E-\L	2gg 2g\)	.	.
8B-\	.	.	.
8e- 8G\	.	.	.
8B-\	.	.	.
8G\	4r	.	.
8B-\J)	.	.	.
=120	=120	=120	=120
(8GL 8E-\	(4eee- 4ee-\	.	.
8e-\	.	.	.
8A-X 8F\	4ddd 4dd\	.	.
8e-\	.	.	.
8B- 8G\	4ddd-X 4dd-X\)	.	.
8e-\J)	.	.	.
!!LO:LB:g=original
=121	=121	=121	=121
(8cL 8A-X\	(4ccc 4cc\	.	.
8e-\	.	.	.
8B- 8En\	4bb- 4b-\	.	.
8d-X\	.	.	.
8A- 8F\	4aa-X 4a-X\	.	.
8c\J)	.	.	.
=122	=122	=122	=122
(8BBn\L	4gg 4g\	.	<
8G\	.	.	.
8d\	8aan\L	.	.
8G\	8bbn\	.	.
8d\	8ccc\	.	.
8G\J)	8ddd\J	.	[[
=123	=123	=123	=123
(8C\L	2fff 2ff^\	.	>
8G\	.	.	.
8c\	.	.	.
8G\	.	.	.
8c\	4eee- 4ee-\)	.	]]
8G\J)	.	.	.
=124	=124	=124	=124
(8C\L	(4eee- 4ee-\	.	.
8c\	.	.	.
8G 8C\	8ddd\L	.	.
8c\	8ccc\	.	.
8G 8C\	8bb-\	.	.
8c\J)	8ccc\J)	.	.
=125	=125	=125	=125
!	!	!	!LO:HP:b:t=cre-scen-do:ext2=cd
8B-L 8G 8D\	(4ddd 4dd\	.	<
8d\	.	.	.
8B- 8G 8D\	8ccc\L	.	.
8d\	8bb-\	.	.
8B- 8G 8D\	8aa\	.	.
8d\J	8bb-\J)	.	.
=126	=126	=126	=126
8GL 8En 8D\	(4ddd 4dd\	.	.
8d\	.	.	.
8G 8E 8D\	8ccc\L	.	.
8d\	8bb-\	.	.
8G 8E 8D\	8aa\	.	.
8d\J	8bb-\J)	.	[[
!!LO:PB:g=original
=127	=127	=127	=127
4A 4F#X 4D\	(4ddd 4dd\	.	f
4r	8ccc\L	.	.
.	8bb-\	.	.
4c 4G 4E-'\	8aa\	.	.
.	8gg\J	.	.
=128	=128	=128	=128
4c 4G 4E- 4C'\	8ffn\L	.	.
.	8ee-\	.	.
4c 4G 4E- 4C'\	8dd\	.	.
.	8cc\	.	.
4d 4F#X 4D'\	8b-\	.	.
.	8a\J	.	.
=129	=129	=129	=129
*^	*^	*	*
(2D/	4GG\	4g/)	4B-\	.	.
!	!	!LO:TX:i:a:t=scherzando	!	!	!
.	4GG\	4r	4B-\	.	p
4C#X/	4GG\	8b-'/L	4B-\	.	.
.	.	8b-'/J	.	.	.
=130	=130	=130	=130	=130	=130
2D/	4GG'\	4g'/	4B-\	.	.
.	4GG'\	4g'/	4B-\	.	.
4E-/)	4GG'\	4b-'/	4B-\	.	.
=131	=131	=131	=131	=131	=131
(2D/	4GG'\	2g/	4B-\	.	.
.	4GG'\	.	4B-\	.	.
4C#X/	4GG'\	8b-'/L	4B-\	.	.
.	.	8b-'/J	.	.	.
=132	=132	=132	=132	=132	=132
2D/	4GG'\	4g'/	4B-\	.	.
.	4GG'\	4g'/	4B-\	.	.
4E-/)	4GG'\	4b-'/	4B-\	.	.
=133	=133	=133	=133	=133	=133
4D/	4GG'\	2g/	4B-\	.	.
4D/	4GG'\	.	4B-\	.	.
4D/	4GG'\	(8g/L	4B-\	.	.
.	.	8a/J	.	.	.
!!LO:LB:g=original
=134	=134	=134	=134	=134	=134
4D/	4GG\	2b-/)	4B-\	.	.
4ryy	4d'\ 4B- 4G\	.	4r	.	.
4ryy	4d'\ 4B- 4G\	(8b-\L	4ryy	.	.
.	.	8cc\J	.	.	.
*v	*v	*	*	*	*
*	*v	*v	*	*
=135	=135	=135	=135
4d 4B- 4G'\	2dd\)	.	.
4d 4B- 4G'\	.	.	.
4d 4B- 4G'\	(8cc#X\L	.	.
.	8dd\J)	.	.
=136	=136	=136	=136
4d 4B-'\	4gg 4g\	.	.
4d 4A'\	4ff 4f\	.	.
4d 4B- 4G'\	4een 4en/	.	.
=137	=137	=137	=137
*^	*^	*	*
*	*^	*	*	*	*
!	!	!	!	!	!	!LO:HP:b:t=poco a poco cre-scen-do:ext=s:ext=cd:dur=15h
4d/	4D\	2A/	(4ff/	4f'\	.	<
4rd	4D\	.	4dd/)	4f'\	.	.
4rd	4D\	(4G#X/	8ff'/L	4f'\	.	.
.	.	.	8ff'/J	.	.	.
*	*v	*v	*	*	*	*
*	*	*v	*v	*	*
=138	=138	=138	=138	=138
2A/	4D\	4dd 4f'/	.	.
.	4D\	4dd 4f'/	.	.
4B-/	4D\	4ff 4f'\	.	.
=139	=139	=139	=139	=139
*	*	*^	*	*
2A/	4D\	2dd/	4f'\	.	.
.	4D\	.	4f'\	.	.
4G#X/	4D\	8ff/L	8f\L	.	.
.	.	8ff/J	8f\J	.	.
=140	=140	=140	=140	=140	=140
2A/	4D\	4dd/	4f'\	.	.
.	4D\	4dd/	4f'\	.	.
4B-/	4D\	4ff/	4f'\	.	.
*v	*v	*	*	*	*
!!LO:LB:g=original
=141	=141	=141	=141	=141
4A 4F 4D\)	2dd/	2.f\	.	.
4A 4F 4D\	.	.	.	.
4A 4F 4D\	(8dd/L	.	.	.
.	8een/J	.	.	.
=142	=142	=142	=142	=142
4A 4F 4D\	2ff/)	2.f\	.	.
4A 4F 4D\	.	.	.	.
4A 4F 4D\	(8een/L	.	.	.
.	8ff/J	.	.	.
*	*v	*v	*	*
=143	=143	=143	=143
4B- 4En 4D-X\	2gg 2g\)	.	.
4B- 4E 4D-\	.	.	.
4B- 4E 4D-\	(8ff\L	.	.
.	8gg\J	.	.
=144	=144	=144	=144
4A 4F 4E-X 4C\	4aa 4a\)	.	.
4A 4F 4E- 4C\	4gg 4g'\	.	.
4A 4F 4E- 4C\	4ff 4f'\	.	.
=145	=145	=145	=145
4F 4D 4BB-\	4bb- 4b-\	.	.
4F 4D 4BB-\	4r	.	.
4G 4D 4BB-\	8dddL 8gg'\	.	.
.	8dddJ 8gg'\	.	.
=146	=146	=146	=146
4F 4D 4BB-\	4bb- 4dd'\	.	.
4F 4D 4BB-\	4bb- 4dd'\	.	.
4En 4D 4BB-/	4ddd 4gg\	.	[[
=147	=147	=147	=147
4F 4D 4BB-\	2bb- 2dd^^\	.	.
4F 4D 4BB-\	.	.	.
4G 4D 4BB-\	8dddL 8gg\	.	.
.	8dddJ 8gg\	.	.
!!LO:LB:g=original
=148	=148	=148	=148
4F 4D 4BB-'\	4bb- 4dd'\	.	.
4F 4D 4BB-'\	4bb- 4dd'\	.	.
4En 4D 4BB-'/	4ddd 4gg'\	.	.
=149	=149	=149	=149
4F 4D 4BB-\	2bb- 2dd\	.	.
4f 4d 4B-'\	.	.	.
*	*8va	*	*
4f 4d 4B-'\	(8bb-\L	.	.
.	8ccc\J	.	.
=150	=150	=150	=150
4f 4d 4B-'\	2ddd 2dd/)	.	.
4f 4d 4B-'\	.	.	.
4f 4d 4B-'\	(8ddd\L	.	.
.	8eee-\J	.	.
=151	=151	=151	=151
4f 4d 4B-'\	2fff 2ff\)	.	.
4f 4d 4B-'\	.	.	.
4f 4d 4B-'\	(8ggg\L	.	.
.	8aaa\J	.	.
=152	=152	=152	=152
4f 4d 4B-\	4bbb- 4bb-\)	.	.
4f 4d 4B-\	4aaa 4aa\	.	.
4f 4d 4B-\	4ggg 4gg\	.	.
=153	=153	=153	=153
4f 4c 4F\	4aaa 4aa\	.	.
4f 4c 4F\	4fff\	.	.
8fL 8d 8F\	8fffL 8ddd 8bbn 8gg#X\	.	f
8fJ 8d 8F\	8fffJ 8ddd 8bb 8gg#\	.	.
=154	=154	=154	=154
4f 4c 4F\	4fff 4eee- 4ccc 4aa\	.	.
4f 4c 4F\	4fff 4eee- 4ccc 4aa\	.	.
4f 4Bn 4F\	4fff 4ddd 4gg#X\	.	.
!!LO:LB:g=original
=155	=155	=155	=155
4f 4c 4F\	2fff 2eee- 2aa\	.	.
4f 4c 4F\	.	.	.
8fL 8d 8F\	8fffL 8ddd 8bbn 8gg#X\	.	.
8fJ 8d 8F\	8fffJ 8ddd 8bb 8gg#\	.	.
=156	=156	=156	=156
4f 4c 4F\	4fff 4eee- 4ccc 4aa\	.	.
4f 4c 4F\	4fff 4eee- 4ccc 4aa\	.	.
4f 4Bn 4F\	4fff 4ddd 4bbn 4gg#X\	.	.
=157	=157	=157	=157
4f 4c 4F\	2fff 2eee- 2ccc 2aa\	.	.
4f 4c 4F\	.	.	.
*	*X8va	*	*
4f 4c 4F\	(8ff\L	.	.
.	8gg\J	.	.
=158	=158	=158	=158
4c 4A 4F\	2aa 2a\)	.	.
4c 4A 4F\	.	.	.
4c 4A 4F\	(8aa\L	.	.
.	8bb-\J	.	.
=159	=159	=159	=159
4c 4G 4E-\	2ccc 2cc\)	.	.
4c 4G 4E-\	.	.	.
4c 4G 4E-\	8ccc\L	.	.
.	8ddd\J	.	.
=160	=160	=160	=160
4c 4C\	4eee- 4gg 4ee-\	.	.
4d 4D\	4ddd 4gg 4dd\	.	.
4e- 4E-\	4ccc 4gg 4cc\	.	.
=161	=161	=161	=161
4d 4D^\	4ddd 4dd\	.	.
4c#X 4C#X^\	4r	.	.
4cn 4Cn^\	4r	.	.
!!LO:PB:g=original
=162	=162	=162	=162
4B- 4BB-\	4ddd 4dd^^\	.	ff
4A 4AA\	4ccc#X 4een 4cc#X^^\	.	.
4D\	4cccn 4ff#X 4ccn^^\	.	.
=163	=163	=163	=163
4G 4GG/	(4bb- 4gg 4b-^^\	.	.
(8AL 8G\	4aa 4a\)	.	.
8d\	.	.	.
8B- 8G\	4gg 4g\	.	.
8d\J)	.	.	.
=164	=164	=164	=164
.	(8qaa/	.	.
8B-L 8G\	4gg 4g\)	.	.
8d\	.	.	.
8B- 8G\	4ff#X 4f#X\	.	.
8d\	.	.	.
8B- 8G\	4gg 4g\	.	.
8d\J	.	.	.
=165	=165	=165	=165
8cL 8G\	2aa 2a\	.	.
8d\	.	.	.
8c 8G\	.	.	.
8d\	.	.	.
8c 8G\	8dd'\L	.	.
8d\J	8dd'\J	.	.
=166	=166	=166	=166
8cL 8F#X\	(4dd\	.	<
8d\	.	.	.
8c 8A\	8een'\L	.	.
8d\	8ff#X'\	.	.
8c 8D\	8gg'\	.	.
8d\J	8aa'\J)	.	[
!!LO:LB:g=original
=167	=167	=167	=167
8B-L 8G\	(4bb-\	.	.
8d\	.	.	.
8B- 8G\	4gg\)	.	.
8d\	.	.	.
8B- 8Fn\	4aa\	.	.
8d\J	.	.	.
=168	=168	=168	=168
8B-L 8G 8E-\	4bb- 4gg'\	.	.
8e-\	.	.	.
.	(8qccc/	.	.
8B- 8G 8E-\	(8bb-\L)	.	.
8e-\	8aa\	.	.
8B- 8G 8E-\	8bb-\	.	.
8e-\J	8ccc\J)	.	.
=169	=169	=169	=169
(8dL 8B-\	2ddd 2dd\	.	.
8f\	.	.	.
8d 8A\	.	.	.
8f\	.	.	.
8d 8G\	8dddL 8dd\	.	.
8f\J	8dddJ 8dd\	.	.
=170	=170	=170	=170
8F\L	(4ddd 4ff 4dd\	.	.
8f\	.	.	.
8G\	4ccc#y 4een 4cc#X\	.	.
8f\	.	.	.
8A\	4cccn 4ee-X 4ccn\	.	.
8f\J	.	.	.
=171	=171	=171	=171
8B-\L	4bb- 4dd 4b-\	.	.
8d\	.	.	.
8F\	4aa 4a\)	.	.
8B-\	.	.	.
8D\	4gg 4g\	.	.
8B-\J)	.	.	.
!!LO:LB:g=original
=172	=172	=172	=172
8BB-\L	4gg 4g^^\	.	.
8B-\	.	.	.
8G 8D\	8aa\L	5	.
8B-\	8ggn\	.	.
8BB-\	8ff#X\	.	.
8B-\J	8gg\J	.	.
=173	=173	=173	=173
4AA/	2.aa 2.cc#X 2.a^^\	.	.
4En\	.	.	.
4A\	.	.	.
=174	=174	=174	=174
8F#XL 8D\	4dd\	.	.
8A\	.	.	.
8cn\J	8een\L	.	.
8r	8ff#X\	.	.
4r	8gg\	.	.
.	8aa\J	.	.
=175	=175	=175	=175
8d 8B- 8G\	8bb-^^\	.	.
8r	8r	.	.
.	(8qbb-/	.	.
2e-X 2c#X 2B- 2G\	(8aa^\L)	.	.
.	8ff#X\	.	.
.	8gg\	.	.
.	8aa\J)	.	.
=176	=176	=176	=176
8d 8B- 8G\	8bb-^^\	.	.
8r	8r	.	.
.	(8qaa/	.	.
2e- 2c#X 2B- 2G\	(8gg^\L)	.	.
.	8ff#X\	.	.
.	8gg\	.	.
.	8aa\J)	.	.
!!LO:LB:g=original
=177	=177	=177	=177
8d 8B- 8G\	8bb-^^\	.	.
8r	8r	.	.
.	(8qaa/	.	.
2e- 2c#X 2B- 2G\	(8gg^\L)	.	.
.	8ff#X\	.	.
.	8gg\	.	.
.	8aa\J)	.	.
=178	=178	=178	=178
8d 8B- 8G\	(8bb-\L	.	.
8r	8aa\	.	.
8e- 8B- 8E-\	8gg\	.	.
8r	8aa\	.	.
8e- 8G 8E-\	8bb-\	.	.
8r	8ccc\J)	.	.
=179	=179	=179	=179
*	*^	*	*
4B- 4BB-'\	8ddd/	8dd\	.	.
.	8ryy	8r	.	.
.	(<8qccc/	.	.	.
2B- 2G 2E-^^\	(8bb-/L)	2ee-\	.	.
.	8aa/	.	.	.
.	8bb-/	.	.	.
.	8ccc/J)	.	.	.
=180	=180	=180	=180	=180
4B- 4BB-'\	8ddd^^/	8dd\	.	.
.	8ryy	8r	.	.
.	(<8qccc/	.	.	.
2B- 2G 2E-^^\	(8bb-/L)	2ee-\	.	.
.	8aa/	.	.	.
.	8bb-/	.	.	.
.	8ccc/J)	.	.	.
=181	=181	=181	=181	=181
4B- 4BB-'\	8ddd^^/	8dd\	.	.
.	8ryy	8r	.	.
.	(<8qccc/	.	.	.
2B- 2G 2E-^^\	(8bb-/L)	2ee-\	.	.
.	8aa/	.	.	.
.	8bb-/	.	.	.
.	8ccc/J)	.	.	.
=182	=182	=182	=182	=182
4B- 4BB-^^\	8ddd^^/L	4dd\	.	.
.	8ccc/	.	.	.
4B- 4G 4E-\	8bb-/	4ee-\	.	.
.	8aa/	.	.	.
4B- 4G 4E-\	8bb-/	4ee-\	.	.
.	8ccc/J	.	.	.
*	*v	*v	*	*
!!LO:LB:g=original
=183	=183	=183	=183
(8BB-\L	2.ddd 2.gg 2.dd^^\	.	ff
8B-\	.	.	.
8AA\	.	.	.
8A\	.	.	.
8BB-\	.	.	.
8B-\J	.	.	.
=184	=184	=184	=184
8GL 8E- 8C\	4ccc 4ee- 4cc\	.	.
8c\	.	.	.
8G 8E- 8C\	4bb- 4b-\	.	.
8c\	.	.	.
8G 8E- 8C\	4aa 4a\	.	.
8c\J	.	.	.
=185	=185	=185	=185
8B-L 8G 8D\	4gg 4b- 4g\	.	.
8d\	.	.	.
8B- 8G 8D\	4ff#X 4f#X\	.	.
8d\	.	.	.
8B- 8G 8D\	4gg 4g\	.	.
8d\J	.	.	.
=186	=186	=186	=186
8DL 8C\	(4aa 4a^\	.	.
8A\	.	.	.
8D 8C\	4ff#X\)	.	.
8A\	.	.	.
8D 8C\	4dd'\	.	.
8A\J)	.	.	.
=187	=187	=187	=187
(8BB-\L	2.ddd 2.gg 2.dd^^\	.	.
8B-\	.	.	.
8AA\	.	.	.
8A\	.	.	.
8BB-\	.	.	.
8B-\J)	.	.	.
!!LO:PB:g=original
=188	=188	=188	=188
8E-L 8C\	4ccc 4cc\	.	.
8G\	.	.	.
8E- 8C\	4bb- 4b-\	.	.
8G\	.	.	.
8E- 8C\	4aa 4a\	.	.
8G\J	.	.	.
=189	=189	=189	=189
.	(8qaa/	.	.
8B-L 8G 8D\	4gg 4g\)	.	.
8d\	.	.	.
8B- 8G 8D\	4ff#X 4f#X\	.	.
8d\	.	.	.
8B- 8G 8D\	4gg 4g\	.	.
8d\J	.	.	.
=190	=190	=190	=190
8F#XL 8D 8C\	(4aa 4a\	.	.
8A\	.	.	.
8F# 8D 8C\	4dd\)	.	.
8A\	.	.	.
8F# 8D 8C\	4ddd 4dd'\	.	.
8A\J	.	.	.
=191	=191	=191	=191
8FnL 8BBn\	2ddd 2dd^^\	.	.
8A-X\	.	.	.
8F 8BB\	.	.	.
8A-\	.	.	.
8F 8BB\	8ccc\L	.	.
8A-\J	8ddd\J	.	.
!!LO:LB:g=original
=192	=192	=192	=192
8AnL 8E- 8C\	8fff^\L	.	.
8c\	8eee-\	.	.
8A 8E- 8C\	8ddd\	.	.
8c\	8ccc\	.	.
8A 8E- 8C\	8bb-\	.	.
8c\J	8aa\J	.	.
=193	=193	=193	=193
4B- 4G 4D\	8gg\L	.	.
.	8ddd\	.	.
4r	8ccc\	.	.
.	8bb-\	.	.
4r	8aa\	.	.
.	8gg\J	.	.
=194	=194	=194	=194
8G 8E-\	8ff\L	.	.
8r	8ee-\	.	.
8c 8G 8E- 8C\	8dd\	.	.
8r	8cc\	.	.
8c 8F#X 8D\	8b-\	.	.
8r	8a\J	.	.
=195	=195	=195	=195
2B- 2G\	2g/	.	.
8E-L 8GG/	8b-L 8c#X 8B-/	.	ff
8E-J 8GG/	8b-J 8c# 8B-/	.	.
=196	=196	=196	=196
4D 4GG/	4g 4d 4B-/	.	.
4D 4GG/	4g 4d 4B-/	.	.
4C#X 4GG/	4b- 4e- 4B-/	.	.
!!LO:LB:g=original
=197	=197	=197	=197
2D 2GG^^</	2g 2d 2B-^^</	.	.
8E-L 8GG/	8b-L 8c#X 8B-/	.	.
8E-J 8GG/	8b-J 8c# 8B-/	.	.
=198	=198	=198	=198
4D 4GG/	4g 4d 4B-/	.	.
4D 4GG/	4g 4d 4B-/	.	.
4C#X 4GG/	4b- 4e- 4B-/	.	.
=199	=199	=199	=199
2D 2GG/	2g 2d 2B-/	.	.
8GGL 8GGG'/	8gL 8G'/	.	.
8GGJ 8GGG'/	8gJ 8G'/	.	.
=200	=200	=200	=200
2GG 2GGG^/	2g 2G^/	.	.
8GGL 8GGG'/	8gL 8G'/	.	.
8GGJ 8GGG'/	8gJ 8G'/	.	.
=201	=201	=201	=201
2GG 2GGG^/	2g 2G^/	.	.
8GGL 8GGG'/	8gL 8G'/	.	.
8GGJ 8GGG'/	8gJ 8G'/	.	.
=202	=202	=202	=202
4GG 4GGG'/	4g 4G'/	.	.
4GG 4GGG'/	4g 4G'/	.	.
4GG 4GGG'/	4g 4G'/	.	.
!!LO:LB:g=original
=203	=203	=203	=203
!	!	!	!LO:HP:b:t=di-mi-nu-en-do:ext2=cd
[2.GG [2.GGG/	2G/	.	<
.	8G/L	.	.
.	8G/J	.	.
=204	=204	=204	=204
2.GG_ 2.GGG/_	2G/	.	.
.	8G/L	.	.
.	8G/J	.	.
=205	=205	=205	=205
2.GG_ 2.GGG/_	2G/	.	.
.	8G/L	.	.
.	8G/J	.	[
=206	=206	=206	=206
4GG] 4GGG/]	4G'/	.	.
4r	4G'/	.	.
4r	4G'/	.	.
*	*clefF4	*	*
=207	=207	=207	=207
*^	*	*	*
2GG/	[2.CC\	[2.G [2.E- [2.C\	.	p
8GG'/L	.	.	.	.
8GG'/J	.	.	.	.
=208	=208	=208	=208	=208
2GG/	2.CC\]	2.G] 2.E-] 2.C\]	.	.
8GG'/L	.	.	.	.
8GG'/J	.	.	.	.
!!LO:LB:g=original
=209	=209	=209	=209	=209
2GG/	2.EE-\	2.G 2.E- 2.BB-\	.	.
8GG'/L	.	.	.	.
8GG'/J	.	.	.	.
=210	=210	=210	=210	=210
4GG'/	2.CC\	2.G 2.E- 2.C\	.	.
4GG'/	.	.	.	.
4GG'/	.	.	.	.
=211	=211	=211	=211	=211
*	*	*^	*	*
*ped	*	*	*	*	*
2.GG/	[2.GG\	4G/	2.D\ [2.BB-	.	.
.	.	4r	.	.	.
.	.	8G/L	.	.	.
.	.	8G/J	.	.	.
=212	=212	=212	=212	=212	=212
2.GG/	2.GG\_	2G/	4D\ 4BB-]	.	.
.	.	.	4r	.	.
.	.	8G/L	4r	.	.
.	.	8G/J	.	.	.
=213	=213	=213	=213	=213	=213
4GG/	4GG\]	2G/	2.r	.	.
4r	4r	.	.	.	.
4r	4r	8G/L	.	.	.
.	.	8G/J	.	.	.
*v	*v	*	*	*	*
=214	=214	=214	=214	=214
2.r	4G/	2.r	.	.
.	4G/	.	.	.
.	4G/	.	.	.
!!LO:PB:g=original
=215	=215	=215	=215	=215
[2.EEn [2.AAA/	2G/	[2.C#X\	.	pp
.	8G/L	.	.	.
.	8G/J	.	.	.
=216	=216	=216	=216	=216
2.EE] 2.AAA/]	4G/	2.C#\]	.	.
.	4G/	.	.	.
.	4G/	.	.	.
=217	=217	=217	=217	=217
[2.GG [2.BBB-/	2G/	[2.D\	.	.
.	8G/L	.	.	.
.	8G/J	.	.	.
=218	=218	=218	=218	=218
2.GG] 2.BBB-/]	4G/	2.D\]	.	.
.	4G/	.	.	.
.	4G/	.	.	.
=219	=219	=219	=219	=219
[2.GG [2.BBBn/	2G/	[2.F\	.	.
.	8G/L	.	.	.
.	8G/J	.	.	.
=220	=220	=220	=220	=220
2.GG] 2.BBB/]	4G/	2.F\]	.	.
.	4G/	.	.	.
.	4G/	.	.	.
!!LO:LB:g=original
=221	=221	=221	=221	=221
2.GG 2.CC/	2G/	2.An 2.E-\	.	.
.	8G/L	.	.	.
.	8G/J	.	.	.
=222	=222	=222	=222	=222
2.GG 2.DD/	2G/	2.Bn 2.D\	.	.
.	8G/L	.	.	.
.	8G/J	.	.	.
=223	=223	=223	=223	=223
2.GG 2.EE-/	2c/	4G\	.	.
.	.	4G\	.	.
.	4ryy	4G\	.	.
*	*v	*v	*	*
*	*clefG2	*	*
=224	=224	=224	=224
*^	*	*	*
!	!	!LO:TX:i:b:t=un poco ritenuto	!	!
2.c#X 2.B-/	2.En 2.EEn\	([2.g^^</	.	sf >
=225	=225	=225	=225	=225
4d 4B-/	4F 4FF\	2g/]	.	.
4r	4ryy	.	.	.
4r	4ryy	4f/	.	.
=226	=226	=226	=226	=226
*	*^	*	*	*
2.A/	2.FF\	(<2C/	2e-/	.	.
.	.	4E-/	4c/)	.	]]
*	*v	*v	*	*	*
!!LO:LB:g=original
=227	=227	=227	=227	=227
*	*	*^	*	*
!	!	!LO:TX:B:a:t=Tempo I.	!	!	!
4D/)	8BB-\	8B-/	2ryy	.	.
.	8rD	8r	.	.	.
4ryy	4rGG	8d 8B- 8F</	.	.	.
.	.	8r	.	.	.
4ryy	8FF\	4f^/	8d 8B-\	.	.
.	8rGG	.	8rc	.	.
*v	*v	*	*	*	*
=228	=228	=228	=228	=228
8BB-\	4r	2ryy	.	.
8rGG	.	.	.	.
4rGG	8d 8B-< 8F</	.	.	.
.	8r	.	.	.
8FF\	4f^/	8d 8B-\	.	.
8rGG	.	8rc	.	.
=229	=229	=229	=229	=229
8BB-\	4r	2ryy	.	.
8rGG	.	.	.	.
4rGG	8d 8B-< 8F</	.	.	.
.	8r	.	.	.
8FF\	4f^/	8d 8B-\	.	.
8rGG	.	8rc	.	.
=230	=230	=230	=230	=230
8BB-\	4r	2ryy	.	.
8rGG	.	.	.	.
4rGG	8d 8B-< 8F</	.	.	.
.	8r	.	.	.
8FF\	4f^/	8d 8B-\	.	.
8rGG	.	8rc	.	.
*	*v	*v	*	*
=231	=231	=231	=231
8BB-/	8f 8d/	.	.
8r	8r	.	.
8B- 8F\	(8gL 8e-'/	.	.
8r	8a 8f'/	.	.
8FF/	8b- 8g'/	.	.
8r	8ccJ 8a'/)	.	.
!!LO:LB:g=original
=232	=232	=232	=232
8BB-/	8dd 8b-\	.	.
8r	8r	.	.
8d 8B-\	8cc 8a/	.	.
8r	8r	.	.
8F\	8b- 8g/	.	.
8r	8r	.	.
=233	=233	=233	=233
8C/	(8aL 8f'\	.	.
8r	8b- 8g'\	.	.
8e- 8A\	8cc 8a'\	.	.
8r	8dd 8b-'\	.	.
8F\	8ee- 8cc'\	.	.
8r	8ffJ 8dd'\)	.	.
=234	=234	=234	=234
*	*^	*	*
8C/	2gg\ 2ee-\	2ryy	.	.
8r	.	.	.	.
8e- 8B-\	.	.	.	.
8r	.	.	.	.
8G\	4gg 4ee-/	8b-\L	.	.
8r	.	8b-\J	.	.
*	*v	*v	*	*
=235	=235	=235	=235
8F\	(4gg 4ee- 4b-\	.	.
8r	.	.	.
8e- 8c\	8gg-X\L	.	.
8r	8ee-\	.	.
8F\	8cc\	.	.
8r	8a\J)	.	.
=236	=236	=236	=236
8FF/	(4ff 4cc 4a\	.	.
8r	.	.	.
8e-X 8c\	8een\L	.	.
8r	8ee-X\	.	.
8F\	8cc\	.	.
8r	8a\J)	.	.
!!LO:LB:g=original
=237	=237	=237	=237
8BB-/	(8cc\L	.	.
8r	8b-\	.	.
8d 8B-\	8a\	.	.
8r	8b-\	.	.
8F\	8dd\	.	.
8r	8b-\J)	.	.
=238	=238	=238	=238
8D\	4f/	.	.
8r	.	.	.
8B- 8G\	4r	.	.
8r	.	.	.
8F\	8fL 8d/	.	.
8r	8fJ 8d/	.	.
=239	=239	=239	=239
8BB-/	8f 8d/	.	.
8r	8r	.	.
8B- 8F\	(8gL 8e-'/	.	.
8r	8a 8f'/	.	.
8FF/	8b- 8g'/	.	.
8r	8ccJ 8a'/)	.	.
=240	=240	=240	=240
8BB-/	8dd 8b-\	.	.
8r	8r	.	.
8d 8B-\	8cc 8a/	.	.
8r	8r	.	.
8F\	8b- 8g/	.	.
8r	8r	.	.
=241	=241	=241	=241
8C/	8aL 8f\	.	.
8r	8b- 8g\	.	.
8e- 8A\	8cc 8a\	.	.
8r	8dd 8b-\	.	.
8F\	8ee- 8cc\	.	.
8r	8ffJ 8dd\	.	.
!!LO:PB:g=original
=242	=242	=242	=242
*	*^	*	*
8C/	2gg\ 2ee-\	2ryy	.	.
8r	.	.	.	.
8e- 8B-\	.	.	.	.
8r	.	.	.	.
8G\	4gg 4ee-/	8b-\L	.	.
8r	.	8b-\J	.	.
*	*v	*v	*	*
=243	=243	=243	=243
(4D\	(4gg 4cc 4a\	.	.
8c 8A\)	8ff#X\L	.	.
8r	8dd\	.	.
4r	8cc#X\	.	.
.	8dd\J)	.	.
=244	=244	=244	=244
(4D#X\	(4ff#X 4cc 4a\	.	.
8c 8A\)	8ffn\L)	.	.
8r	(8cc\	.	.
4r	8bn\	.	.
.	8cc\J)	.	.
=245	=245	=245	=245
(4En\	(4ff 4cc 4a\	.	.
8c 8A\)	8een\L)	.	.
8r	(8cc\	.	.
4r	8bn\	.	.
.	8cc\J)	.	.
=246	=246	=246	=246
(4F\	(8ffL 8cc 8a\	.	.
.	8ee-X\J)	.	.
.	8qff/	.	.
8c 8A\)	8ee-\L	.	.
8r	8dd\	.	.
8F\	8ee-\	.	.
8r	8ff\J	.	.
!!LO:LB:g=original
=247	=247	=247	=247
4BB-/	(8dd\L	.	p
.	8ff\	.	.
4d 4B- 4F\	8een\	.	.
.	8ff\	.	.
4d 4B- 4F\	8gg\	.	.
.	8ff\J	.	.
=248	=248	=248	=248
4BB-/	8een\L	.	.
.	8ff\	.	.
4c 4A 4F\	8ee-X\	.	.
.	8ff\	.	.
4e- 4A 4F\	8cc\	.	.
.	8ff\J)	.	.
=249	=249	=249	=249
4BB-/	(8dd\L	.	.
.	8ff\	.	.
4d 4B- 4F\	8een\	.	.
.	8ff\	.	.
4d 4B- 4F\	8gg\	.	.
.	8ff\J	.	.
=250	=250	=250	=250
4BB-/	8een\L	.	.
.	8ff\	.	.
4c 4A 4F\	8ee-X\	.	.
.	8ff\	.	.
4e- 4A 4F\	8cc\	.	.
.	8ff\J)	.	.
!!LO:LB:g=original
=251	=251	=251	=251
4BB-/	8dd\L	.	<
.	8ff\	.	.
4d 4F\	8bb-\	.	.
.	8ccc\J	.	[
4d 4B- 4F\	[4ddd\	.	.
=252	=252	=252	=252
*^	*	*	*
4r	2.G\	8ddd\L]	.	.
.	.	8ccc#X\	.	.
4c#X 4B-/	.	8bb-\	.	.
.	.	8gg\J	.	.
4c# 4B-/	.	4een\	.	.
=253	=253	=253	=253	=253
4r	4F\	8ee-\L	.	.
.	.	8ff\	.	.
4d 4B-/	4r	8gg\	.	.
.	.	8ff\J	.	.
4d 4B-/	4r	[4bb-\	.	.
*v	*v	*	*	*
=254	=254	=254	=254
4FF/	(8bb-\L]	.	.
.	8aa\	.	.
4e- 4A 4F\	8ccc\	.	.
.	8gg\	.	.
4c 4A 4F\	8ff\	.	.
.	8ee-\J)	.	.
=255	=255	=255	=255
4BB-/	(8dd\L	.	.
.	8ff\	.	.
4d 4B- 4F\	8een\	.	.
.	8ff\	.	.
4d 4B- 4F\	8gg\	.	.
.	8ff\J)	.	.
!!LO:LB:g=original
=256	=256	=256	=256
4BB-/	(8een\L	.	.
.	8ff\	.	.
4c 4A 4F\	8ee-X\	.	.
.	8ff\	.	.
4e- 4A 4F\	8cc\	.	.
.	8ff\J	.	.
=257	=257	=257	=257
4BB-/	8dd\L	.	.
.	8ff\	.	.
4d 4B- 4F\	8een\	.	.
.	8ff\	.	.
4d 4B- 4F\	8gg\	.	.
.	8ff\J	.	.
=258	=258	=258	=258
4BB-/	8een\L	.	.
.	8ff\	.	.
4c 4A 4F\	8ee-X\	.	.
.	8ff\	.	.
4e- 4A 4F\	8cc\	.	.
.	8ff\J)	.	.
=259	=259	=259	=259
4BB-/	8dd\L	.	.
.	8ff\	.	.
4d 4B- 4F\	8bb-\	.	.
.	8ddd\J	.	.
4d 4B-\	[4fff [4ff^^\	.	.
=260	=260	=260	=260
*^	*	*	*
4r	2.G\	(8fff]L 8ff\]	.	.
.	.	8eeen\	.	.
4d-X 4B-/	.	8ddd-X\	.	.
.	.	8bb-\J	.	.
4d- 4B-/	.	[4gg^^\	.	.
!!LO:LB:g=original
=261	=261	=261	=261	=261
4r	2.F\	(8gg\L])	.	.
.	.	8ff\	.	.
4dn 4B-/	.	8ccc\	.	.
.	.	8bb-\	.	.
4f 4B-/	.	8eee-X\	.	.
.	.	8dddn\J	.	.
=262	=262	=262	=262	=262
4r	2.F\	8ccc\L	.	.
.	.	8aa\	.	.
4e- 4c/	.	8ff\	.	.
.	.	8ee-\	.	.
4c 4A/	.	8cc\	.	.
.	.	8ff\J)	.	.
*v	*v	*	*	*
=263	=263	=263	=263
4B- 4F 4BB-\	(8dd\L	.	.
.	8ee-\	.	.
4B- 4F 4D\	8ff\	.	.
.	8gg\	.	.
4B- 4F 4BB-\	8aa\	.	.
.	8bb-\J	.	.
=264	=264	=264	=264
.	8qaa/	.	.
4c#X 4B- 4G 4En\	8gg\L	.	.
.	8ff#X\	.	.
4c# 4B- 4G 4E\	8gg\	.	.
.	8aa\	.	.
4c# 4B- 4G 4E\	8bb-\	.	.
.	8cccn\J	.	.
=265	=265	=265	=265
4f 4d 4B- 4F\	8ddd\L	.	.
.	8fff\	.	.
4r	8eee-\	.	.
.	8ddd\	.	.
4r	8ccc\	.	.
.	8bb-\J)	.	.
!!LO:PB:g=original
=266	=266	=266	=266
(2.A 2.E- 2.C (2.FF^^</	(8aa\L	.	.
.	8gg\	.	.
.	8ff\	.	.
.	8ee-\	.	.
.	8dd\	.	.
.	8cc\J	.	.
=267	=267	=267	=267
4B- 4D 4BB-\))	4b-\)	.	.
4F 4BB-'\	4r	.	p
!	!LO:TX:i:b:t=scherz.	!	!
4G 4BB-'\	8ddL 8d'/	.	.
.	8ddJ 8d'/	.	.
=268	=268	=268	=268
4F 4BB-'\	4b- 4d'/	.	.
4F 4BB-'\	4b- 4d'/	.	.
4En 4BB-'/	4dd 4d'/	.	.
=269	=269	=269	=269
*	*^	*	*
4F 4BB-'\	2b-/	4d'\	.	.
4F 4BB-'\	.	4d'\	.	.
4G 4BB-'\	8dd/L	4d'\	.	.
.	8dd'/J	.	.	.
=270	=270	=270	=270	=270
4F 4BB-'\	4b-/	4d'\	.	.
4F 4BB-'\	4b-/	4d'\	.	.
4En 4BB-'/	4dd/	4d'\	.	.
=271	=271	=271	=271	=271
4F 4BB-'\	2b-/	4d'\	.	.
4F 4BB-'\	.	4d'\	.	.
4F 4BB-'\	(8b-'/L	4d'\	.	.
.	8cc'/J	.	.	.
=272	=272	=272	=272	=272
4B- 4F 4BB-'\	2dd/)	4d\	.	.
4d 4B-'\	.	4ryy	.	.
4f 4d 4B-'\	(8dd'\L	4ryy	.	.
.	8ee-'\J	.	.	.
*	*v	*v	*	*
!!LO:LB:g=original
=273	=273	=273	=273
4f 4d 4B-'\	2ff\)	.	.
4f 4d 4B-'\	.	.	.
4f 4d 4B-'\	(8gg'\L	.	.
.	8aa'\J	.	.
=274	=274	=274	=274
4f 4d 4B-'\	4bb- 4b-\)	.	.
4f 4d 4B-'\	4aa 4a'\	.	.
4f 4d 4B-'\	4gg 4g'\	.	.
=275	=275	=275	=275
*	*^	*	*
4f 4c 4F'\	(4aa/	2a\	.	.
4c 4F'\	4ff/)	.	.	.
4d 4F'\	8ffL 8b- 8g#X'\	4ryy	.	.
.	8ffJ 8b- 8g#'\	.	.	.
*	*v	*v	*	*
=276	=276	=276	=276
4e- 4F'\	4ff 4cc 4a'\	.	.
4e- 4F'\	4ff 4cc 4a'\	.	.
4d 4F'\	4ff 4bn 4g#X'\	.	.
=277	=277	=277	=277
4e- 4F^^\	2ff 2cc 2a^^\	.	.
4e- 4F'\	.	.	.
4d 4F'\	8ffL 8b 8g#X'\	.	.
.	8ffJ 8b 8g#'\	.	.
=278	=278	=278	=278
4e- 4F'\	4ff 4cc 4a'\	.	.
4e- 4F'\	4ff 4cc 4a'\	.	.
4d 4F'\	4ff 4bn 4g#X'\	.	.
!!LO:LB:g=original
=279	=279	=279	=279
4e- 4F'\	2ff 2cc 2a^^\	.	.
4c 4A 4F'\	.	.	.
4c 4A 4F'\	(<8a'/L	.	.
.	8b-'/J	.	.
=280	=280	=280	=280
4c 4A 4F'\	2cc\)	.	.
4c 4A 4F'\	.	.	.
4c 4A 4F'\	(8cc'\L	.	.
.	8dd'\J	.	.
=281	=281	=281	=281
4c 4G 4C'\	2ee-\)	.	.
4c 4G 4C'\	.	.	.
4c 4G 4C'\	(8ee-'\L	.	.
.	8ff'\J)	.	.
=282	=282	=282	=282
4c 4A 4F'\	(8gg\L	.	.
.	8ff\	.	.
4c 4A 4F'\	8ee-\	.	.
.	8ff\	.	.
4c 4A 4F'\	8gg\	.	.
.	8aa\J	.	.
=283	=283	=283	=283
!	!	!	!LO:DY:b:t=più f
4d 4B-'\	4bb-\)	.	f
4B- 4D 4BB-'\	4r	.	.
4G 4D 4BB-'\	8dddL 8gg'\	.	.
.	8dddJ 8gg'\	.	.
=284	=284	=284	=284
4F 4D 4BB-'\	4bb- 4dd'\	.	.
4F 4D 4BB-'\	4bb- 4dd'\	.	.
4En 4D 4BB-'/	4ddd 4gg'\	.	.
=285	=285	=285	=285
4F 4D 4BB-'\	4bb- 4dd^^\	.	.
4F 4D 4BB-'\	4ryy	.	.
4G 4D 4BB-'\	8dddL 8gg'\	.	.
.	8dddJ 8gg'\	.	.
!!LO:LB:g=original
=286	=286	=286	=286
4F 4D 4BB-'\	4bb- 4dd'\	.	.
4F 4D 4BB-'\	4bb- 4dd'\	.	.
4En 4D 4BB-'/	4ddd 4gg\	.	.
=287	=287	=287	=287
4F 4D 4BB-'\	2bb- 2dd^^\	.	.
4f 4d 4B-'\	.	.	.
*	*8va	*	*
4f 4d 4B-'\	(8bb-\L	.	.
.	8ccc\J	.	.
=288	=288	=288	=288
4f 4d 4B-'\	2ddd/ 2dd/)	.	.
4f 4d 4B-'\	.	.	.
4f 4d 4B-'\	(8ddd\L	.	.
.	8eee-\J	.	.
=289	=289	=289	=289
4f 4d 4B-'\	2fff 2ff\)	.	.
4f 4d 4B-'\	.	.	.
4f 4d 4B-'\	(8ggg\L	.	.
.	8aaa\J	.	.
=290	=290	=290	=290
4f 4d 4B-'\	4bbb- 4bb-'\)	.	.
4f 4d 4B-'\	4aaa 4aa'\	.	.
4f 4d 4B-'\	4ggg 4gg'\	.	.
=291	=291	=291	=291
4f 4c 4F'\	(4aaa 4aa\	.	.
4f 4c 4F'\	4fff\)	.	.
8fL 8d 8F'\	8fffL 8ddd 8bbn 8gg#X\	.	f
8fJ 8d 8F'\	8fffJ 8ddd 8bb 8gg#\	.	.
!!LO:LB:g=original
=292	=292	=292	=292
4f 4c 4F'\	4fff 4eee-X 4ccc 4aa'\	.	.
4f 4c 4F'\	4fff 4eee- 4ccc 4aa'\	.	.
4f 4Bn 4F'\	4fff 4ddd 4bbn 4gg#X'\	.	.
=293	=293	=293	=293
2f 2c 2F^^\	2fff 2eee- 2ccc 2aa^^\	.	.
8fL 8d 8F'\	8fffL 8ddd 8bbn 8gg#X'\	.	.
8fJ 8d 8F'\	8fffJ 8ddd 8bb 8gg#'\	.	.
=294	=294	=294	=294
4f 4c 4F'\	4fff 4eee- 4ccc 4aa'\	.	.
4f 4c 4F'\	4fff 4eee- 4ccc 4aa'\	.	.
4f 4Bn 4F'\	4fff 4ddd 4bbn 4gg#X'\	.	.
=295	=295	=295	=295
4f 4c 4F'\	2fff 2eee- 2ccc 2aa\	.	.
4f 4c 4F'\	.	.	.
*	*X8va	*	*
4f 4c 4F'\	(8ff\L	.	.
.	8gg\J	.	.
=296	=296	=296	=296
4c 4A 4F'\	2aa 2a\)	.	.
4c 4A 4F'\	.	.	.
4c 4A 4F'\	(8aa\L	.	.
.	8bb-\J	.	.
=297	=297	=297	=297
4c 4G 4E-'\	2ccc 2cc\)	.	.
4c 4G 4E-'\	.	.	.
4c 4G 4E-'\	8ccc\L	.	.
.	8ddd\J	.	.
!!LO:PB:g=original
=298	=298	=298	=298
4c 4C\	4eee- 4gg 4ee-\	.	.
4d 4D\	4ddd 4gg 4dd\	.	.
4e- 4E-\	4ccc 4gg 4cc\	.	.
=299	=299	=299	=299
4d 4F#X 4D\	4ddd 4dd^^\	.	ff
4d 4G 4En\	4r	.	.
4d 4G#X 4E#X\	4r	.	.
=300	=300	=300	=300
4F#X 4FF#X^^/<	4ddd 4dd^^\	.	.
8AL 8F#\	4ccc#X 4cc#X^^\	.	.
8d\	.	.	.
8A 8F#\	4cccn 4ccn^^\	.	.
8d\J	.	.	.
=301	=301	=301	=301
4Fn 4FFn^^</	(4bbn 4bn\	.	.
8GL 8F\	4aa 4a\)	.	.
8d\	.	.	.
8G 8F\	4bb 4b'\	.	.
8d\J	.	.	.
=302	=302	=302	=302
4En 4EEn^^</	4ccc 4cc^^\	.	.
8GL 8E\	4bb-X 4b-X^^\	.	.
8c\	.	.	.
8G 8E\	4aa 4a^^\	.	.
8c\J	.	.	.
=303	=303	=303	=303
4E-X 4EE-X^^</	(2gg 2g^^\	.	.
8AL 8E-\	.	.	.
8c\	.	.	.
8A 8E-\	4gg-X 4g-X\)	.	.
8c\J	.	.	.
!!LO:LB:g=original
=304	=304	=304	=304
8FL 8D\	8ff\L	.	.
8B-\	8gg\	.	.
8F 8D\	8aa\	.	.
8B-\	8bb-\	.	.
8F 8D\	8ccc\	.	.
8B-\J	8ddd\J	.	.
=305	=305	=305	=305
8GL 8C\	8eee-\L	.	.
8c\	8fff\	.	.
8G 8C\	8aaa\	.	.
8c\	8ggg\	.	.
8G 8C\	8fff\	.	.
8c\J	8eee-\J	.	.
=306	=306	=306	=306
8AL 8F\	8ddd\L	.	.
8c\	8ccc\	.	.
8A 8F\	8bb-\	.	.
8c\	8aa\	.	.
8A 8F\	8bb-\	.	.
8c\J	8ccc\J	.	.
=307	=307	=307	=307
(8B-^^\L	2ddd\	.	.
8d\	.	.	.
8A^^\	.	.	.
8d\	.	.	.
8G^^\	4ddd 4dd\	.	.
8d\J)	.	.	.
=308	=308	=308	=308
8AL 8F#X^^\	4eee- 4ee-^^\	.	.
8d\	.	.	.
8A 8F#\	4ddd 4dd\	.	.
8d\	.	.	.
8A 8F#\	4ccc 4cc\	.	.
8d\J	.	.	.
=309	=309	=309	=309
8GL 8Fn\	4bbn 4bn\	.	.
8d\	.	.	.
8G 8F\	4aa 4a\	.	.
8d\	.	.	.
8G 8F\	4bb 4b\	.	.
8d\J	.	.	.
!!LO:LB:g=original
=310	=310	=310	=310
8A-XL 8F^^\	4ccc 4cc\	.	.
8c\	.	.	.
8A- 8F\	4bb-X 4b-X\	.	.
8c\	.	.	.
8A- 8F\	4aa-X 4a-X\	.	.
8c\J	.	.	.
=311	=311	=311	=311
8GL 8E-^^\	(2gg 2g\	.	.
8c\	.	.	.
8G 8E-\	.	.	.
8c\	.	.	.
8An 8E-\	4gg-X 4g-X\)	.	.
8c\J	.	.	.
=312	=312	=312	=312
8FL 8D\	8ff\L	.	.
8B-\	8gg\	.	.
8F 8D\	8aa\	.	.
8B-\	8bb-\	.	.
8F 8D\	8ccc\	.	.
8B-\J	8ddd\J	.	.
=313	=313	=313	=313
8GL 8C\	8eee-\L	.	.
8c\	8fff\	.	.
8G 8C\	8aaa\	.	.
8c\	8ggg\	.	.
8G 8C\	8fff\	.	.
8c\J	8eee-\J	.	.
=314	=314	=314	=314
8AL 8F\	8ddd\L	.	.
8c\	8ccc\	.	.
8A 8F\	8bb-\	.	.
8c\	8aa\	.	.
8A 8F\	8bb-\	.	.
8c\J	8ccc\J	.	.
=315	=315	=315	=315
4d 4B-\	4ddd^^\	.	.
4e- 4c\	8ccc\L	.	.
.	8bb-\	.	.
4en 4c#X\	8aa\	.	.
.	8gg\J	.	.
!!LO:LB:g=original
=316	=316	=316	=316
4f 4d'\	8ff\L	.	fp
.	8gg\	.	.
4f 4d'\	8ff\	.	.
.	8een\	.	.
!	!	!	!LO:HP:b:t=molto cre-scen-do:ext=s:ext2=cd
4f 4d'\	8ff\	.	<
.	8ff#X\J	.	.
=317	=317	=317	=317
4en 4c#X'\	8gg\L	.	.
.	8aa\	.	.
4e 4c#'\	8gg\	.	.
.	8ff#X\	.	.
4e 4c#'\	8gg\	.	.
.	8gg#X\J	.	.
=318	=318	=318	=318
4e-X 4cn'\	8aa\L	.	.
.	8bb-\	.	.
4e- 4c'\	8aa\	.	.
.	8gg\	.	.
4d 4B-'\	8aa\	.	.
.	8bb-\J	.	.
=319	=319	=319	=319
4c 4A'\	8ccc\L	.	.
.	8ddd\	.	.
4c 4A'\	8ccc\	.	.
.	8bbn\	.	.
4B-X 4G'\	8ccc\	.	[[
.	8ddd\J	.	.
=320	=320	=320	=320
*	*tremolo	*	*
[2.C [2.CC/	8eee-L 8aa\	.	ff
.	8ff#X\	.	.
.	8eee- 8aa\	.	.
.	8ff#X\	.	.
.	8eee- 8aa\	.	.
.	8ff#X\J	.	.
=321	=321	=321	=321
2.C] 2.CC/]	8eee-L 8aa\	.	.
.	8ff#X\	.	.
.	8eee- 8aa\	.	.
.	8ff#X\	.	.
.	8eee- 8aa\	.	.
.	8ff#X\J	.	.
!!LO:LB:g=original
=322	=322	=322	=322
4C 4CC/	8eee-L 8aa\	.	.
.	8ff#X\	.	.
4E-\	8eee- 8aa\	.	.
.	8ff#X\	.	.
4F#X\	8eee- 8aa\	.	.
.	8ff#X\J	.	.
=323	=323	=323	=323
4A\	8eee-L 8aa\	.	.
.	8ff#X\	.	.
4c\	8eee- 8aa\	.	.
.	8ff#X\	.	.
4e-\	8eee- 8aa\	.	.
.	8ff#X\J	.	.
*	*Xtremolo	*	*
=324	=324	=324	=324
4c 4A 4F#X\	4eee-\	.	ff
*clefG2	*	*	*
(8cc\L	(8ccc\L	.	.
8dd\J	8ddd\J	.	.
4ee-\)	4eee-\)	.	.
=325	=325	=325	=325
(<8a/L	(8aa\L	.	.
8b-/J	8bb-\J	.	.
4cc\)	4ccc\)	.	.
(8f#X/L	(8ff#X\L	.	.
8g/J	8gg\J	.	.
=326	=326	=326	=326
4a/)	4aa\)	.	.
(8c/L	(8cc\L	.	.
8d/J	8dd\J	.	.
4e-/)	4ee-\)	.	.
*clefF4	*	*	*
=327	=327	=327	=327
(8A\L	(<8a/L	.	.
8B-\J	8b-/J	.	.
4c\)	4cc\)	.	.
(8F#X\L	(8f#X/L	.	.
8G\J	8g/J	.	.
*kcancel	*kcancel	*	*
!!LO:PB:g=original
=328||	=328||	=328||	=328||
*k[f#c#]	*k[f#c#]	*	*
*M2/4	*M2/4	*	*
!!LO:TX:B:t=Allegro.
8A\)	4.a/)	.	p
8r	.	.	.
4r	.	.	.
.	16a/LL	.	.
.	16a/JJ	.	.
=329	=329	=329	=329
2r	4.a/	.	.
!	!	!	!LO:HP:b:t=di-mi-nu-en-do:ext2=cd
.	16a/LL	.	>
.	16a/JJ	.	.
=330	=330	=330	=330
2r	8a/L	.	.
.	16a/L	.	.
.	16a/JJ	.	.
.	8a/L	.	.
.	16a/L	.	.
.	16a/JJ	.	.
=331	=331	=331	=331
2r	8a/L	.	.
.	16a/L	.	.
.	16a/JJ	.	.
.	8a/L	.	.
.	16a/L	.	.
.	16a/JJ	.	]]
=332	=332	=332	=332
4r	8a/	.	.
.	8r	.	.
*clefG2	*	*	*
8aL 8d'/	8ff#L 8dd'\	.	ppp
16aL 16d'/	16ff#L 16dd'\	.	.
16aJJ 16d'/	16ff#JJ 16dd'\	.	.
=333	=333	=333	=333
8aL 8d'/	8ff#L 8dd'\	.	.
8a 8g 8d'/	8ee 8cc#'\	.	.
8a 8f# 8d'/	8ff# 8dd'\	.	.
8aJ 8e 8d'/	8ggJ 8ee'\	.	.
=334	=334	=334	=334
4a 4d^^</	4aa^^> 4ff#\	.	.
8aL 8d'/	8ff#L 8dd'\	.	.
16aL 16d'/	16ff#L 16dd'\	.	.
16aJJ 16d'/	16ff#JJ 16dd'\	.	.
!!LO:LB:g=original
=335	=335	=335	=335
8aL 8d'/	8ff#L 8dd'\	.	.
8a 8g 8d'/	8ee 8cc#'\	.	.
8a 8f# 8d'/	8ff# 8dd'\	.	.
8aJ 8e 8d'/	8ggJ 8ee'\	.	.
=336	=336	=336	=336
4a 4d^^<</	4aa 4ff#^^\	.	.
8aL 8d'/	8aaL 8ff#'\	.	.
16aL 16d'/	16aaL 16ff#'\	.	.
16aJJ 16d'/	16aaJJ 16ff#'\	.	.
=337	=337	=337	=337
8aL 8d'/	8bbL 8ff#'\	.	.
8a 8d'/	8aa 8ff#'\	.	.
8a 8d'/	8ff# 8dd'\	.	.
8f#J 8d'/	8ddJ 8a'\	.	.
=338	=338	=338	=338
4e 4A^^</	4aa 4cc# 4a^^\	.	.
8gL 8c# 8A'/	8eeL 8a'\	.	.
16gL 16c# 16A'/	16eeL 16a'\	.	.
16gJJ 16c# 16A'/	16eeJJ 16a'\	.	.
=339	=339	=339	=339
8gL 8c# 8A'/	8ff#L 8a'\	.	.
8g 8c# 8A'/	8ee 8a'\	.	.
8g 8e 8A'/	8cc# 8a'\	.	.
8gJ 8c# 8A'/	8a'\J	.	.
=340	=340	=340	=340
4f# 4d^^</	4ff# 4a^^\	.	.
8aL 8d'/	8ff#L 8dd'\	.	.
16aL 16d'/	16ff#L 16dd'\	.	.
16aJJ 16d'/	16ff#JJ 16dd'\	.	.
=341	=341	=341	=341
8aL 8d'/	8ff#L 8dd'\	.	.
8a 8g 8d'/	8ee 8cc#'\	.	.
8a 8f# 8d'/	8ff# 8dd'\	.	.
8aJ 8e 8d'/	8ggJ 8ee'\	.	.
=342	=342	=342	=342
4a 4d^^</	4aa 4ff#^^\	.	.
8aL 8d'/	8ff#L 8dd'\	.	.
16aL 16d'/	16ff#L 16dd'\	.	.
16aJJ 16d'/	16ff#JJ 16dd'\	.	.
!!LO:LB:g=original
=343	=343	=343	=343
8aL 8d'/	8ff#L 8dd'\	.	.
8a 8g 8d'/	8ee 8cc#'\	.	.
8a 8f# 8d'/	8ff# 8dd'\	.	.
8aJ 8e 8d'/	8ggJ 8ee'\	.	.
=344	=344	=344	=344
4a 4d^^/	4aa 4ff#^^\	.	.
8aL 8d'/	8aaL 8ff#'\	.	.
16aL 16d'/	16aaL 16ff#'\	.	.
16aJJ 16d'/	16aaJJ 16ff#'\	.	.
=345	=345	=345	=345
8aL 8d'/	8aaL 8ff#'\	.	.
8a 8d'/	8ddd 8ff# 8dd'\	.	.
8a 8d'/	8ccc# 8ff# 8dd'\	.	.
8aJ 8d'/	8bbJ 8ff# 8dd'\	.	.
=346	=346	=346	=346
4a 4e 4A^^/	4ccc# 4aa 4cc#^^\	.	.
8gL 8e 8A/	8aaL 8ee 8cc#'\	.	.
8gJ 8c# 8A/	(16aaL 16ee\	.	.
.	16bb\JJ	.	.
=347	=347	=347	=347
8gL 8e 8A/	8ccc#L 8ee\)	.	.
8e 8A/	8bb 8gg 8ee'\	.	.
8a 8A/	8ccc# 8gg 8ee'\	.	.
8aJ 8A/	8aaJ 8gg 8ee'\	.	.
=348	=348	=348	=348
4a 4d/	4ddd 4ff# 4dd\	.	.
=-	=-	=-	=-
*clefF4	*	*	*
*k[b-e-]	*k[b-e-]	*	*
8B-L 8F 8BB-'\	8dddL 8bb- 8ff 8dd'\	.	fff
16B-L 16F 16BB-'\	16dddL 16bb- 16ff'\	.	.
16B-JJ 16F 16BB-'\	16dddJJ 16bb- 16ff'\	.	.
=349	=349	=349	=349
8B-L 8F 8BB-'\	8dddL 8bb- 8ff'\	.	.
8F 8E- 8BB-'\	8ccc 8aa 8ff'\	.	.
8F 8D 8BB-'\	8ddd 8bb- 8ff'\	.	.
8FJ 8C 8BB-'\	8eee-J 8ccc 8ff'\	.	.
!!LO:LB:g=original
=350	=350	=350	=350
4F 4BB-^^\	4fff 4ddd 4ff^^\	.	.
8B-L 8F 8BB-'\	8dddL 8bb- 8ff'\	.	.
16B-L 16F 16BB-'\	16dddL 16bb- 16ff'\	.	.
16B-JJ 16F 16BB-'\	16dddJJ 16bb- 16ff'\	.	.
=351	=351	=351	=351
8B-L 8F 8BB-'\	8dddL 8bb- 8ff'\	.	.
8F 8E- 8BB-'\	8ccc 8aa 8ff'\	.	.
8F 8D 8BB-'\	8ddd 8bb- 8ff'\	.	.
8FJ 8C 8BB-'\	8eee-J 8ccc 8ff'\	.	.
=352	=352	=352	=352
4F 4BB-^^\	4fff 4ddd 4ff^^\	.	.
*	*8va	*	*
8dL 8B-'\	8fffL 8bb-'\	.	.
16dL 16B-'\	16fffL 16bb-'\	.	.
16dJJ 16B-'\	16fffJJ 16bb-'\	.	.
=353	=353	=353	=353
8dL 8B-'\	8gggL 8bb-'\	.	.
8d 8B-'\	8fff 8bb-'\	.	.
8d 8B-'\	8ddd 8bb-'\	.	.
8dJ 8B-'\	8bb-'\J	.	.
=354	=354	=354	=354
4f 4c 4F^^\	4fff 4ccc 4aa^^\	.	.
8e-L 8A 8F'\	8cccL 8ff'/	.	.
16e-L 16A 16F'\	16cccL 16ff'/	.	.
16e-JJ 16A 16F'\	16cccJJ 16ff'/	.	.
=355	=355	=355	=355
8e-L 8A 8F'\	8dddL 8ff'/	.	.
8e- 8A 8F'\	8ccc 8ff'/	.	.
8e- 8c 8F'\	8aa 8ff'/	.	.
8e-J 8A 8F'\	8ff'/J	.	.
=356	=356	=356	=356
4d 4B-^^\	4ddd 4ff^^</	.	.
8B-L 8F 8BB-'\	8dddL 8bb- 8ff'/	.	.
16B-L 16F 16BB-'\	16dddL 16bb- 16ff'/	.	.
16B-JJ 16F 16BB-'\	16dddJJ 16bb- 16ff'/	.	.
=357	=357	=357	=357
8B-L 8F 8BB-'\	8dddL 8bb- 8ff'/	.	.
8F 8E- 8BB-'\	8ccc 8aa 8ff'/	.	.
8F 8D 8BB-'\	8ddd 8bb- 8ff'/	.	.
8FJ 8C 8BB-'\	8eee-J 8ccc 8ff'/	.	.
!!LO:LB:g=original
=358	=358	=358	=358
4F 4BB-^^\	4fff 4ddd 4ff^^\	.	.
8B-L 8F 8BB-'\	8dddL 8bb- 8ff'/	.	.
16B-L 16F 16BB-'\	16dddL 16bb- 16ff'/	.	.
16B-JJ 16F 16BB-'\	16dddJJ 16bb- 16ff'/	.	.
=359	=359	=359	=359
8B-L 8F 8BB-'\	8dddL 8bb- 8ff'/	.	.
8F 8E- 8BB-'\	8ccc 8aa 8ff'/	.	.
8F 8D 8BB-'\	8ddd 8bb- 8ff'/	.	.
8FJ 8C 8BB-'\	8eee-J 8ccc 8ff'/	.	.
=360	=360	=360	=360
4F 4BB-^^\	4fff 4ddd^^\	.	.
8dL 8B-'\	8fffL 8bb-'\	.	.
16dL 16B-'\	16fffL 16bb-'\	.	.
16dJJ 16B-'\	16fffJJ 16bb-'\	.	.
=361	=361	=361	=361
8dL 8B-'\	8fffL 8bb-'\	.	.
8d 8B-'\	8bbb- 8bb-'\	.	.
8d 8B-'\	8aaa 8bb-'\	.	.
8dJ 8B-'\	8gggJ 8bb-'\	.	.
=362	=362	=362	=362
4f 4c 4F^^\	4aaa 4fff 4aa^^\	.	.
8e-L 8c 8F'\	8fffL 8aa'\	.	.
16e-L 16c 16F'\	(16fff\L	.	.
16e-JJ 16c 16F'\	16ggg\JJ	.	.
=363	=363	=363	=363
8e-L 8c 8F'\	8aaaL 8ccc\)	.	.
8e- 8c 8F'\	8ggg 8ccc'\	.	.
8e- 8c 8F'\	8aaa 8ccc'\	.	.
8e-J 8c 8F'\	8fffJ 8ccc'\	.	.
=364	=364	=364	=364
8BB-'\L	4bbb- 4bb-\	.	.
8dJ 8B-'\	.	.	.
*	*X8va	*	*
8F'\L	16bb-^^\LL	.	p
.	16aa\	.	.
8dJ 8B-'\	16gg\	.	.
.	16ff\JJ	.	.
!!LO:LB:g=original
=365	=365	=365	=365
8D'\L	16een\LL	.	.
.	16ff\	.	.
8dJ 8B-'\	16gg\	.	.
.	16ff\JJ	.	.
8F'\L	16ee-X\LL	.	.
.	16dd\	.	.
8dJ 8B-'\	16cc\	.	.
.	16b-\JJ	.	.
=366	=366	=366	=366
8C\L	(8b-/L	.	.
8e-J 8F\	8a/J)	.	.
8F\L	16a/LL	.	.
.	16b-/	.	.
8e-J 8c\	16a/	.	.
.	16g/JJ	.	.
=367	=367	=367	=367
8FF\L	16a\LL	.	.
.	16b-\	.	.
8e-J 8c 8A\	16cc\	.	.
.	16dd\JJ	.	.
8F\L	16ee-\LL	.	.
.	16ff\	.	.
8e-J 8c 8A\	16aa\	.	.
.	16gg\JJ	.	.
=368	=368	=368	=368
8BB-\L	4ff\	.	.
8dJ 8B-\	.	.	.
8F\L	16bb-^^\LL	.	.
.	16aa\	.	.
8dJ 8B-\	16gg\	.	.
.	16ff\JJ	.	.
=369	=369	=369	=369
8D\L	16een\LL	.	.
.	16ff\	.	.
8dJ 8B-\	16gg\	.	.
.	16ff\JJ	.	.
8F\L	16ee-X\LL	.	.
.	16dd\	.	.
8dJ 8B-\	16cc\	.	.
.	16b-\JJ	.	.
!!LO:PB:g=original
=370	=370	=370	=370
8C\L	(8b-/L	.	.
8e-J 8F\	8a/J)	.	.
8F\L	16a/LL	.	.
.	16b-/	.	.
8e-J 8c\	16a/	.	.
.	16g/JJ	.	.
=371	=371	=371	=371
8FF\L	16a\LL	.	.
.	16b-\	.	.
8e-J 8c 8A\	16cc\	.	.
.	16dd\JJ	.	.
8F\L	16ee-\LL	.	.
.	16ff\	.	.
8e-J 8c 8A\	16aa\	.	.
.	16gg\JJ	.	.
=372	=372	=372	=372
8d 8B-\	8ff\	.	.
8r	8r	.	.
8f#XL 8d\	8ff#XL 8a\	.	pp
16f#L 16d\	16ff#L 16a\	.	.
16f#JJ 16d\	16ff#JJ 16a\	.	.
=373	=373	=373	=373
8f#XL 8d'\	8ff#XL 8a'\	.	.
8f# 8d'\	8dd 8a'\	.	.
8f# 8d'\	8ff# 8a'\	.	.
8f#J 8d'\	8ddJ 8a'\	.	.
=374	=374	=374	=374
8f#X 8d^^\	8ff#X 8a^^\	.	.
8r	8r	.	.
8d-XL 8E- 8D-X'\	8ggL 8ee- 8b- 8g'\	.	ff
16d-L 16E- 16D-'\	16ggL 16ee- 16b- 16g'\	.	.
16d-JJ 16E- 16D-'\	16ggJJ 16ee- 16b- 16g'\	.	.
=375	=375	=375	=375
8d-XL 8E- 8D-X'\	8ggL 8ee- 8b- 8g'\	.	.
8d- 8E- 8D-'\	8ee- 8b- 8g'\	.	.
8d- 8E- 8D-'\	8gg 8ee- 8b- 8g'\	.	.
8d-J 8E- 8D-'\	8ee-J 8b- 8g'\	.	.
!!LO:LB:g=original
=376	=376	=376	=376
4d-X 4E- 4D-X^^\	4gg 4ee- 4b- 4g^^\	.	.
*clefG2	*	*	*
8aL 8dn 8c'/	8aaL 8ff#X 8ddn'\	.	pp
16aL 16d 16c'/	16aaL 16ff# 16dd'\	.	.
16aJJ 16d 16c'/	16aaJJ 16ff# 16dd'\	.	.
=377	=377	=377	=377
8aL 8dn 8c'/	8aaL 8ff#X 8dd'\	.	.
8a 8d 8c'/	8ff# 8dd 8a'\	.	.
8a 8d 8c'/	8aa 8ff# 8dd'\	.	.
8aJ 8d 8c'/	8ff#J 8dd 8a'\	.	.
=378	=378	=378	=378
8a 8dn 8c^^</	8aa 8ff#X 8dd^^\	.	.
8r	8r	.	.
*clefF4	*	*	*
8B-L 8F 8BB-'\	8bb-L 8ffn 8dd'\	.	ff
16B-L 16F 16BB-'\	16bb-L 16ff 16dd'\	.	.
16B-JJ 16F 16BB-'\	16bb-JJ 16ff 16dd'\	.	.
=379	=379	=379	=379
8B-L 8BB-'\	8bb-L 8ff 8dd'\	.	.
8B- 8F'\	8ff 8dd 8b-'\	.	.
8B- 8F 8D'\	8bb- 8ff 8b-'\	.	.
8B-J 8F 8BB-'\	8dddJ 8bb- 8ff'\	.	.
=380	=380	=380	=380
8F^^\	8ccc 8aa 8ff^^\	.	.
16f'\LL	16ff'\LL	.	.
16f'\JJ	16ff'\JJ	.	.
8f'\L	8ff'\L	.	.
16f'\L	16ff'\L	.	.
16f'\JJ	16ff'\JJ	.	.
=381	=381	=381	=381
8f'\L	8ff'\L	.	.
16f'\L	16ff'\L	.	.
16f'\JJ	16ff'\JJ	.	.
8f'\L	8ff'\L	.	.
8f'\J	8ff'\J	.	.
!!LO:LB:g=original
=382!|:	=382!|:	=382!|:	=382!|:
*>B	*>B	*	*
8AL 8F 8AA^^\	8cccL 8ee- 8cc^^\	.	f
8AJ 8F 8AA^^\	8ffJ 8ee- 8cc^^\	.	.
8FF'\L	8r	.	.
8cJ 8A'\	(16een\LL	.	p
.	16ff\JJ	.	.
=383	=383	=383	=383
8BB-\L	16gg\LL	.	.
.	16ff\	.	.
8dJ 8F\	16ee-X\	.	.
.	16dd\JJ	.	.
8D\L	16cc\LL	.	.
.	16b-\	.	.
8B-J 8F\	16a\	.	.
.	16b-\JJ)	.	.
=384	=384	=384	=384
8BnL 8G 8BBn^^\	8dddL 8ff 8dd^^\	.	f
8BJ 8G 8BB^^\	8ggJ 8ff 8dd^^\	.	.
8GG\L	8r	.	.
8fnJ 8B 8G\	(16ff#X\LL	.	p
.	16gg\JJ	.	.
=385	=385	=385	=385
8C\L	16aa-X\LL	.	.
.	16gg\	.	.
8e-J 8c 8G\	16ffn\	.	.
.	16ee-\JJ	.	.
8E-\L	16dd\LL	.	.
.	16cc\	.	.
8cJ 8G\	16bn\	.	.
.	16cc\JJ)	.	.
=386	=386	=386	=386
*^	*	*	*
8F#XL 8FF#X^^</	4ryy	8eee-L 8aa 8ee-^^\	.	f
8F#J 8FF#^^</	.	8aaJ 8ee- 8cc^^\	.	.
8r	4F#\	8r	.	.
8e- 8c/	.	(16gg#X\LL	.	p
.	.	16aa\JJ	.	.
=387	=387	=387	=387	=387
8r	4G\	16ccc\LL	.	.
.	.	16bb-\	.	.
8d 8B-/	.	16aa\	.	.
.	.	16ggn\JJ	.	.
8r	4E-\	16ff\LL	.	.
.	.	16ee-\	.	.
8c 8G/	.	16dd\	.	.
.	.	16cc\JJ)	.	.
!!LO:LB:g=original
=388	=388	=388	=388	=388
8r	4F\	(16b-\LL	.	.
.	.	16cc\	.	.
8d 8B-/	.	16dd\	.	.
.	.	16ee-\JJ	.	.
8r	4F\	16ff\LL	.	.
.	.	16ee-\	.	.
8e- 8A/	.	16dd\	.	.
.	.	16cc\JJ)	.	.
*v	*v	*	*	*
=389	=389	=389	=389
*>B1	*>B1	*	*
8d 8B-\	8b-\	.	.
8fL 8F^^\	8ffL 8dd 8b-^^\	.	f
8d 8D^^\	8bb- 8ff 8b-^^\	.	.
8B-J 8BB-^^\	8dddJ 8bb- 8ff 8dd^^\	.	.
=390:|!	=390:|!	=390:|!	=390:|!
*>B2	*>B2	*	*
8B-L 8F 8D 8BB-'\	8b-\	.	ff
8B- 8F 8D 8BB-'\	8r	.	.
8B- 8F 8D 8BB-'\	8.fffL 8.bb- 8.ff^^\	.	.
8B-J 8F 8D 8BB-'\	.	.	.
.	16ddd\Jk	.	.
=391	=391	=391	=391
*>C	*>C	*	*
8B-L 8F 8D 8BB-\	(16bb-\LL	.	.
.	16ff\	.	.
8B- 8F 8D 8BB-\	16bb-\	.	.
.	16ddd\JJ)	.	.
8A 8F 8E- 8BB-\	8ccc'\L	.	.
8AJ 8F 8E- 8BB-\	8eee-J 8ee-'\	.	.
=392	=392	=392	=392
8B-L 8F 8D 8BB-\	8dddL 8dd'\	.	.
8B- 8F 8D 8BB-\	8bb-J 8ff'\	.	.
8B- 8F 8D 8BB-\	8.dddL 8.ff 8.dd^^\	.	.
8B-J 8F 8D 8BB-\	.	.	.
.	16bb-\Jk	.	.
=393	=393	=393	=393
8B-L 8F 8D 8BB-\	(16ff\LL	.	.
.	16dd\	.	.
8B- 8F 8D\	16ff\	.	.
.	16bb-\JJ)	.	.
8AJ 8F\	8ccc'\L	.	.
8F 8FF/	8fffJ 8aa 8ff'\	.	.
!!LO:LB:g=original
=394	=394	=394	=394
8F 8BB-\	4ddd 4ff\	.	.
8B-L 8F 8D 8BB-\	.	.	.
8B- 8F 8D 8BB-\	8.fffL 8.bb- 8.ff^^\	.	.
8B-J 8F 8D 8BB-\	.	.	.
.	16ddd\Jk	.	.
=395	=395	=395	=395
8B-L 8F 8D 8BB-\	(16bb-\LL	.	.
.	16ff\	.	.
8B- 8F 8D 8BB-\	16bb-\	.	.
.	16ddd\JJ)	.	.
8A 8F 8E- 8BB-\	8ccc'\L	.	.
8AJ 8F 8E- 8BB-\	8eee-J 8ee-'\	.	.
=396	=396	=396	=396
8B- 8F 8D 8BB-\	8ddd 8dd'\	.	.
8FL 8FF/	16ff\LL	.	.
.	16ff\JJ	.	.
8D 8DD/	8bb-\L	.	.
8BB-J 8BBB-/	8ddd\J	.	.
=397	=397	=397	=397
8FF/	8fff 8ff^^\	.	.
8r	16ff'\LL	.	.
.	16ff'\JJ	.	.
8F 8FF/	8aaL 8ff 8ee- 8cc^^\	.	.
8r	16ff'\L	.	.
.	16ff'\JJ	.	.
=398	=398	=398	=398
16FFLL 16BBB-/	16bb-LL 16dd\	.	ff
16BB-/	16b-\	.	.
16FF 16BBB-/	16bb- 16dd\	.	.
16BB-/JJ	16b-\JJ	.	.
16FFLL 16BBB-/	16bb-LL 16dd\	.	.
16BB-/	16b-\	.	.
16FF 16BBB-/	16bb- 16dd\	.	.
16BB-/JJ	16b-\JJ	.	.
!!LO:LB:g=original
=399	=399	=399	=399
16FFLL 16BBB-/	16bb-LL 16dd\	.	.
16BB-/	16b-\	.	.
16FF 16BBB-/	16bb- 16dd\	.	.
16BB-/JJ	16b-\JJ	.	.
16FFLL 16BBB-/	16bb-LL 16dd\	.	.
16BB-/	16b-\	.	.
16FF 16BBB-/	16bb- 16dd\	.	.
16BB-/JJ	16b-\JJ	.	.
=400	=400	=400	=400
8BBB-/	8bb- 8ff 8dd\	.	.
16B-LL 16F 16BB-'\	16dddLL 16ff 16dd'\	.	.
16B-JJ 16F 16BB-'\	16dddJJ 16ff 16dd'\	.	.
8B-L 8F 8BB-'\	8dddL 8ff 8dd'\	.	.
16B-L 16F 16BB-'\	16bb-L 16dd'\	.	.
16B-JJ 16F 16BB-'\	16bb-JJ 16dd'\	.	.
=401	=401	=401	=401
8B-L 8F 8BB-'\	8bb-L 8dd'\	.	.
16B-L 16F 16BB-'\	16ffL 16dd'\	.	.
16B-JJ 16F 16BB-'\	16ffJJ 16dd'\	.	.
8B-L 8F 8BB-'\	8ffL 8dd'\	.	.
8B-J 8BB-'\	8ddJ 8b- 8f'\	.	.
=402	=402	=402	=402
8BB- 8BBB-/	8b-\	.	.
8r	8r	.	.
8B- 8F 8D 8BB-\	8dd 8b- 8f/	.	.
8r	8r	.	.
=403	=403	=403	=403
8B- 8F 8D 8BB-\	8ff 8dd 8b- 8f\	.	.
8r	8r	.	.
8B- 8F 8D 8BB-\	8bb- 8ff 8dd 8b-\	.	.
8r	8r	.	.
=404	=404	=404	=404
2BB- 2BBB-;</	2B-;</	.	.
==	==	==	==
*-	*-	*-	*-
!!!system-decoration: {(p1)}
!!!RDF**kern: > = above
!!!RDF**kern: < = below
!!!ENC: Andrzej Gręziak
!!!END: 2022-08-20
!!!ENC: Kamil Watkowski
!!!END: 2022-09-24
